!!!!SEGMENT: pl-stab--19a_nowakiewicz-kazimierz--salve-regina.krn
!!!cenid: 18xx:3449
!!!COM: Nowakiewicz, Kazimierz
!!!COM-rismID:
!!!CDT: <1800->1824
!!!CNT: Polish
!!!OTL: Salve Regina
!!!PDT:
!!!AGN:
!!!SMS-siglum: PL-STAb
!!!SMS-shelfmark: 19a
!!!SMS-shelfwork: W
!!!SMS-variant:
!!!SMS-altvar:
!!!NIFC-rismSourceID: 301050687
!!!NIFC-islandoraID: pl-stab:3098
!!!URL-pdf-islandora: https://repozytorium.nifc.pl/islandora/object/pl-stab%3A3098/datastream/PDF/view
!!!URL-scan: https://polish.musicsources.pl/pl/lokalizacje/galeria/rekopisy/4435 @EN{Scan on Polish Music Herritage in Open Access Website} @PL{Skany w portalu Dziedzictwo Muzyki Polskiej w otwartym dostępie}
!!!ONB-nifc:
!!!AIN: 1 bass 2 clars 2 cor 1 organ 2 violn
!!!key: E-
**kern	**dynam	**kern	**dynam	**kern	**dynam	**kern	**text	**kern	**dynam	**kern	**dynam	**kern	**dynam	**kern	**dynam
*part8	*part8	*part7	*part7	*part6	*part6	*part5	*part5	*part4	*part4	*part3	*part3	*part2	*part2	*part1	*part1
*group5	*	*group4	*	*group4	*	*group3	*group3	*group2	*	*group2	*	*group1	*	*group1	*
*staff8	*	*staff7	*	*staff6	*	*staff5	*staff5	*staff4	*	*staff3	*	*staff2	*	*staff1	*
*I"Baſso	*	*I"Violino Secundo	*	*I"Violino Primo	*	*I"Baſso Solo	*	*I"Cornu Secundo in Es	*	*I"Cornu Primo in Es.	*	*I"Clarinetto Secundo in B.	*	*I"Clarinetto Primo	*
*I'b	*	*I'vl 2	*	*I'vl 1	*	*I'B	*	*I'cor 2 in E♭	*	*I'cor 1 in E♭	*	*I'cl 2 in B♭	*	*I'cl 1 in B♭	*
*Iorgan	*	*Ivioln	*	*Ivioln	*	*Ibass	*	*Icor	*	*Icor	*	*Iclars	*	*Iclars	*
*ICklav	*	*ICstr	*	*ICstr	*	*ICvox	*	*ICbras	*	*ICbras	*	*ICww	*	*ICww	*
*	*	*	*	*	*	*IGsolo	*	*	*	*	*	*	*	*	*
*clefF4	*	*clefG2	*	*clefG2	*	*clefF4	*	*clefG2	*	*clefG2	*	*clefG2	*	*clefG2	*
*	*	*	*	*	*	*	*	*ITrd5c9	*	*ITrd5c9	*	*ITrd1c2	*	*ITrd1c2	*
*k[b-e-a-]	*	*k[b-e-a-]	*	*k[b-e-a-]	*	*k[b-e-a-]	*	*k[b-e-a-]	*	*k[b-e-a-]	*	*k[b-e-a-]	*	*k[b-e-a-]	*
*E-:	*	*E-:	*	*E-:	*	*E-:	*	*E-:	*	*E-:	*	*E-:	*	*E-:	*
*M3/4	*	*M3/4	*	*M3/4	*	*M3/4	*	*M3/4	*	*M3/4	*	*M3/4	*	*M3/4	*
=1	=1	=1	=1	=1	=1	=1	=1	=1	=1	=1	=1	=1	=1	=1	=1
*2\right	*2\right	*2\right	*2\right	*2\right	*2\right	*2\right	*2\right	*2\right	*2\right	*2\right	*2\right	*2\right	*2\right	*2\right	*2\right
!LO:TX:a:B:t=Adagio	!	!LO:TX:a:B:t=Adagio	!	!LO:TX:a:B:t=Adagio	!	!LO:TX:a:B:t=Adagio	!	!LO:TX:a:B:t=Adagio	!	!LO:TX:a:B:t=Adagio	!	!LO:TX:a:B:t=Adagio	!	!LO:TX:a:t=in B.	!
!	!	!	!	!	!	!LO:N:vis=00	!	!	!	!	!	!	!	!LO:TX:a:B:t=Adagio	!
4E-\	.	8.e-/L	.	8.e-L 8.G/	.	0.r	.	4E-/	.	4e-\	.	4e-/	.	4ee-\	.
.	.	16e-/Jk	.	16e-/Jk	.	.	.	.	.	.	.	.	.	.	.
4G\	.	8.g/L	.	8.g/L	.	.	.	4G/	.	4g\	.	4g/	.	4gg\	.
.	.	16g/Jk	.	16g/Jk	.	.	.	.	.	.	.	.	.	.	.
4B-\	.	8.b-/L	.	8.b-/L	.	.	.	4B-/	.	4b-\	.	4b-/	.	4bb-\	.
.	.	16b-/Jk	.	16b-/Jk	.	.	.	.	.	.	.	.	.	.	.
=2	=2	=2	=2	=2	=2	=2	=2	=2	=2	=2	=2	=2	=2	=2	=2
8e-\L	.	4e- 4G/	.	4ee- 4e-/	.	.	.	8E-/L	.	8e-\L	.	4e-/	.	4ee-\	.
8E-\J	.	.	.	.	.	.	.	8E-/J	.	8e-\J	.	.	.	.	.
*tremolo	*	*	*	*	*	*	*	*tremolo	*	*tremolo	*	*	*	*	*
8E-\L	.	4r	.	4r	.	.	.	8E-/L	.	8e-\L	.	4r	.	4r	.
8E-\	.	.	.	.	.	.	.	8E-/	.	8e-\	.	.	.	.	.
8E-\	.	4r	.	4r	.	.	.	8E-/	.	8e-\	.	4g/	.	4b-\	.
8E-\J	.	.	.	.	.	.	.	8E-/J	.	8e-\J	.	.	.	.	.
=3	=3	=3	=3	=3	=3	=3	=3	=3	=3	=3	=3	=3	=3	=3	=3
8E-\L	.	2.r	.	2.r	.	.	.	8E-/L	.	8e-\L	.	4a-/	.	4cc\	.
8E-\	.	.	.	.	.	.	.	8E-/	.	8e-\	.	.	.	.	.
8E-\	.	.	.	.	.	.	.	8E-/	.	8e-\	.	4g/	.	4b-\	.
8E-\	.	.	.	.	.	.	.	8E-/	.	8e-\	.	.	.	.	.
8E-\	.	.	.	.	.	.	.	8E-/	.	8e-\	.	4f/	.	4a-\	.
8E-\J	.	.	.	.	.	.	.	8E-/J	.	8e-\J	.	.	.	.	.
*Xtremolo	*	*	*	*	*	*	*	*Xtremolo	*	*Xtremolo	*	*	*	*	*
=4	=4	=4	=4	=4	=4	=4	=4	=4	=4	=4	=4	=4	=4	=4	=4
4E-\	.	8r	.	8.r	.	.	.	4E-/	.	4e-\	.	4e-/	.	4g/	.
.	.	16r	.	.	.	.	.	.	.	.	.	.	.	.	.
.	.	16e-/	.	16e- 16G/	.	.	.	.	.	.	.	.	.	.	.
4G\	.	8.g/L	.	8.g/L	.	.	.	4G/	.	4g\	.	4r	.	4r	.
.	.	16g/Jk	.	16g/Jk	.	.	.	.	.	.	.	.	.	.	.
4B-\	.	8.b-/L	.	8.b-/L	.	.	.	4B-/	.	4b-\	.	4r	.	4r	.
.	.	16b-/Jk	.	16b-/Jk	.	.	.	.	.	.	.	.	.	.	.
=5	=5	=5	=5	=5	=5	=5	=5	=5	=5	=5	=5	=5	=5	=5	=5
!	!	!	!	!	!	!LO:N:vis=00	!	!	!	!	!	!	!	!	!
8e-\L	.	4e- 4G/	.	4ee- 4e-/	.	0.r	.	8G/L	.	8e-\L	.	4r	.	4r	.
8E-\J	.	.	.	.	.	.	.	8E-/J	.	8e-\J	.	.	.	.	.
*tremolo	*	*	*	*	*	*	*	*tremolo	*	*tremolo	*	*	*	*	*
8E-\L	.	4r	.	4r	.	.	.	8E-/L	.	8e-\L	.	4r	.	4r	.
8E-\	.	.	.	.	.	.	.	8E-/	.	8e-\	.	.	.	.	.
8E-\	.	4r	.	4r	.	.	.	8E-/	.	8e-\	.	4b-\	.	4gg\	.
8E-\J	.	.	.	.	.	.	.	8E-/J	.	8e-\J	.	.	.	.	.
=6	=6	=6	=6	=6	=6	=6	=6	=6	=6	=6	=6	=6	=6	=6	=6
8E-\L	.	2.r	.	2.r	.	.	.	8E-/L	.	8e-\L	.	4cc\	.	4aa-\	.
8E-\	.	.	.	.	.	.	.	8E-/	.	8e-\	.	.	.	.	.
8E-\	.	.	.	.	.	.	.	8E-/	.	8e-\	.	4b-\	.	4gg\	.
8E-\	.	.	.	.	.	.	.	8E-/	.	8e-\	.	.	.	.	.
8E-\	.	.	.	.	.	.	.	8E-/	.	8e-\	.	4a-\	.	4ff\	.
8E-\J	.	.	.	.	.	.	.	8E-/J	.	8e-\J	.	.	.	.	.
*Xtremolo	*	*	*	*	*	*	*	*Xtremolo	*	*Xtremolo	*	*	*	*	*
!LO:LB:g=original	!	!LO:LB:g=original	!	!LO:LB:g=original	!	!	!	!LO:LB:g=original	!	!LO:LB:g=original	!	!	!	!LO:LB:g=original	!
=7	=7	=7	=7	=7	=7	=7	=7	=7	=7	=7	=7	=7	=7	=7	=7
4E-\	.	4r	.	8r	.	.	.	4E-/	.	4e-\	.	4g\	.	4ee-\	.
*	*	*tremolo	*	*	*below	*	*	*	*	*	*	*	*	*	*
!	!	!	!	!	!LO:DY:rj:B:i:t=p.	!	!	!	!	!	!	!	!	!	!
.	.	.	.	8e-/	p	.	.	.	.	.	.	.	.	.	.
4r	.	8A-/L	.	16d/LL	.	.	.	4r	.	4r	.	4r	.	4r	.
.	.	.	.	16e-/	.	.	.	.	.	.	.	.	.	.	.
.	.	8B-/	.	16f/	.	.	.	.	.	.	.	.	.	.	.
.	.	.	.	16g/JJ	.	.	.	.	.	.	.	.	.	.	.
!	!	!	!	!	!LO:DY:rj:B:i:t=f.	!	!	!	!	!	!	!	!	!	!
8r	.	8A-/	.	16b-/LL	f	.	.	8B-/L	.	8f\L	.	(8dd\L	.	(8ff\L	.
.	.	.	.	16a-/	.	.	.	.	.	.	.	.	.	.	.
(<8BB-/	.	8B-/J	.	16f/	.	.	.	8B-/J	.	8a-\J	.	8ff\J)	.	8aa-\J)	.
.	.	.	.	16d/JJ	.	.	.	.	.	.	.	.	.	.	.
!	!	!	!	!	!	!	!	!	!	!	!	!LO:LB:g=original	!	!	!
=8	=8	=8	=8	=8	=8	=8	=8	=8	=8	=8	=8	=8	=8	=8	=8
!	!	!	!	!	!LO:DY:rj:B:i:t=p.	!	!	!	!	!	!	!	!	!	!
4E-\)	.	8G/L	.	16e-/LL	p	.	.	4e-\	.	4g\	.	4ee-\	.	4gg\	.
.	.	.	.	16f/	.	.	.	.	.	.	.	.	.	.	.
.	.	8B-/	.	16g/	.	.	.	.	.	.	.	.	.	.	.
.	.	.	.	16a-/JJ	.	.	.	.	.	.	.	.	.	.	.
!	!	!	!	!	!LO:DY:rj:B:i:t=f.	!	!	!	!	!	!	!	!	!	!
4r	.	8G/	.	16cc/LL	f	.	.	4r	.	4r	.	4r	.	4r	.
.	.	.	.	16b-/	.	.	.	.	.	.	.	.	.	.	.
.	.	8B-/	.	16g/	.	.	.	.	.	.	.	.	.	.	.
.	.	.	.	16e-/JJ	.	.	.	.	.	.	.	.	.	.	.
8r	.	8G/	.	16d/LL	.	.	.	8e-/L	.	8g\L	.	(8gg\L	.	(8bb-\L	.
.	.	.	.	16e-/	.	.	.	.	.	.	.	.	.	.	.
(8E-\	.	8B-/J	.	16g/	.	.	.	8G/J	.	8e-\J	.	8ee-\J)	.	8gg\J)	.
.	.	.	.	16e-/JJ	.	.	.	.	.	.	.	.	.	.	.
=9	=9	=9	=9	=9	=9	=9	=9	=9	=9	=9	=9	=9	=9	=9	=9
!	!	!	!	!	!LO:DY:rj	!LO:N:vis=00	!	!	!	!	!	!	!	!	!
4BB-/)	.	8A-/L	.	16d/LL	p	0.r	.	4B-/	.	4f\	.	4dd\	.	4ff\	.
.	.	.	.	16e-/	.	.	.	.	.	.	.	.	.	.	.
.	.	8B-/	.	16f/	.	.	.	.	.	.	.	.	.	.	.
.	.	.	.	16g/JJ	.	.	.	.	.	.	.	.	.	.	.
!	!	!	!	!	!LO:DY:rj:B:i:t=f.	!	!	!	!	!	!	!	!	!	!
4r	.	8A-/	.	16b-/LL	f	.	.	4r	.	4r	.	4r	.	4r	.
.	.	.	.	16a-/	.	.	.	.	.	.	.	.	.	.	.
.	.	8B-/	.	16f/	.	.	.	.	.	.	.	.	.	.	.
.	.	.	.	16d/JJ	.	.	.	.	.	.	.	.	.	.	.
8r	.	8A-/	.	16B-/LL	.	.	.	8B-/L	.	8f\L	.	(8dd\L	.	(8ff\L	.
.	.	.	.	16a-/	.	.	.	.	.	.	.	.	.	.	.
8BB-/	.	8B-/J	.	16f/	.	.	.	8f/J	.	8a-\J	.	8ff\J)	.	8aa-\J)	.
.	.	.	.	16d/JJ	.	.	.	.	.	.	.	.	.	.	.
*	*	*Xtremolo	*	*	*	*	*	*	*	*	*	*	*	*	*
=10	=10	=10	=10	=10	=10	=10	=10	=10	=10	=10	=10	=10	=10	=10	=10
!	!	!	!	!	!LO:DY:rj	!	!	!	!	!	!	!	!	!	!
4E-\	.	8e- 8G/	.	8e-/L	f	.	.	4e-\	.	4g\	.	4ee-\	.	4gg\	.
.	.	4e- 4G/	.	8B-ss</	.	.	.	.	.	.	.	.	.	.	.
4E-\	.	.	.	8g/	.	.	.	4r	.	4r	.	4r	.	4r	.
.	.	4e- 4G/	.	8e-ss</	.	.	.	.	.	.	.	.	.	.	.
4E-\	.	.	.	8b-/	.	.	.	4r	.	4r	.	4r	.	4r	.
.	.	8e- 8G/	.	8g/J	.	.	.	.	.	.	.	.	.	.	.
=11	=11	=11	=11	=11	=11	=11	=11	=11	=11	=11	=11	=11	=11	=11	=11
*	*	*^	*	*	*	*	*	*	*	*	*	*	*	*	*
!	!	!	!LO:TX:t=P:problem=2.B- na środku taktu	!	!	!	!	!	!	!	!	!	!	!	!	!
8e-\L	.	8g/	2.B-/	.	16ee-\LL	.	.	.	4r	.	4r	.	4r	.	4r	.
.	.	.	.	.	16dd\	.	.	.	.	.	.	.	.	.	.	.
8E-\J	.	4g/	.	.	16cc\	.	.	.	.	.	.	.	.	.	.	.
.	.	.	.	.	16b-\JJ	.	.	.	.	.	.	.	.	.	.	.
*tremolo	*	*	*	*	*	*	*	*	*	*	*	*	*	*	*	*
!	!	!	!	!	!LO:LB:g=original	!	!	!	!	!	!	!	!	!	!	!
8E-\L	.	.	.	.	16a-/LL	.	.	.	8r	.	8r	.	8r	.	8r	.
.	.	.	.	.	16g/	.	.	.	.	.	.	.	.	.	.	.
8E-\	.	4g/	.	.	16f/	.	.	.	8G/	.	8e-\	.	8ee-\	.	8gg\	.
.	.	.	.	.	16e-/JJ	.	.	.	.	.	.	.	.	.	.	.
8E-\	.	.	.	.	16d/LL	.	.	.	4G/	.	4e-\	.	4ee-\	.	4gg\	.
.	.	.	.	.	16e-/	.	.	.	.	.	.	.	.	.	.	.
8E-\J	.	8g/	.	.	16f/	.	.	.	.	.	.	.	.	.	.	.
.	.	.	.	.	16e-/JJ	.	.	.	.	.	.	.	.	.	.	.
*Xtremolo	*	*	*	*	*	*	*	*	*	*	*	*	*	*	*	*
=12	=12	=12	=12	=12	=12	=12	=12	=12	=12	=12	=12	=12	=12	=12	=12	=12
!	!	!	!LO:TX:t=P:problem=2.B- na środku taktu	!	!	!	!	!	!	!	!	!	!	!	!	!
8F\L	.	8a-/	2.B-/	.	8d/L	.	.	.	4B-/	.	4f\	.	4dd\	.	4ff\	.
8BB-\J	.	4a-/	.	.	8B-ss</	.	.	.	.	.	.	.	.	.	.	.
*tremolo	*	*	*	*	*	*	*	*	*	*	*	*	*	*	*	*
8BB-/L	.	.	.	.	8f/	.	.	.	4r	.	4r	.	4r	.	4r	.
8BB-/	.	4a-/	.	.	8d/	.	.	.	.	.	.	.	.	.	.	.
8BB-/	.	.	.	.	8a-/	.	.	.	4r	.	4r	.	4r	.	4r	.
8BB-/J	.	8a-/	.	.	8f/J	.	.	.	.	.	.	.	.	.	.	.
*Xtremolo	*	*	*	*	*	*	*	*	*	*	*	*	*	*	*	*
*	*	*v	*v	*	*	*	*	*	*	*	*	*	*	*	*	*
!	!	!	!	!	!	!	!	!	!	!LO:LB:g=original	!	!	!	!	!
=13	=13	=13	=13	=13	=13	=13	=13	=13	=13	=13	=13	=13	=13	=13	=13
!LO:TX:a:t=P:mixedbeam:problem	!	!	!	!	!	!LO:N:vis=00	!	!	!	!	!	!	!	!	!
8B-\L	.	8f 8B-/	.	16ff\LL	.	0.r	.	4r	.	4r	.	4r	.	4r	.
.	.	.	.	16ee-\	.	.	.	.	.	.	.	.	.	.	.
8BB-/J	.	4dd 4f/	.	16dd\	.	.	.	.	.	.	.	.	.	.	.
.	.	.	.	16cc\JJ	.	.	.	.	.	.	.	.	.	.	.
*tremolo	*	*	*	*	*	*	*	*	*	*	*	*	*	*	*
8BB-/L	.	.	.	16b-/LL	.	.	.	8r	.	8r	.	8r	.	8r	.
.	.	.	.	16a-/	.	.	.	.	.	.	.	.	.	.	.
8BB-/	.	4dd 4f/	.	16g/	.	.	.	8B-/	.	8f\	.	8dd\	.	8ff\	.
.	.	.	.	16f/JJ	.	.	.	.	.	.	.	.	.	.	.
8BB-/	.	.	.	16e-/LL	.	.	.	4B-/	.	4f\	.	4dd\	.	4ff\	.
.	.	.	.	16d/	.	.	.	.	.	.	.	.	.	.	.
8BB-/J	.	8dd 8f/	.	16c/	.	.	.	.	.	.	.	.	.	.	.
.	.	.	.	16B-/JJ	.	.	.	.	.	.	.	.	.	.	.
*Xtremolo	*	*	*	*	*	*	*	*	*	*	*	*	*	*	*
!LO:LB:g=original	!	!LO:LB:g=original	!	!	!	!	!	!LO:LB:g=original	!	!	!	!	!	!LO:LB:g=original	!
=14	=14	=14	=14	=14	=14	=14	=14	=14	=14	=14	=14	=14	=14	=14	=14
8E-/L	.	8ee- 8g/	.	8e-/L	.	.	.	4e-\	.	4g\	.	4ee-\	.	4gg\	.
8D/	.	8d/L	.	8f/	.	.	.	.	.	.	.	.	.	.	.
8D-X/	.	8e-/	.	8g/	.	.	.	4r	.	4r	.	4r	.	4r	.
8C/	.	8f/	.	8a-/	.	.	.	.	.	.	.	.	.	.	.
8BB-/	.	8g/	.	8b-/	.	.	.	4r	.	4r	.	4r	.	4r	.
8AA-/J	.	8a-/J	.	8cc/J	.	.	.	.	.	.	.	.	.	.	.
=15	=15	=15	=15	=15	=15	=15	=15	=15	=15	=15	=15	=15	=15	=15	=15
*tremolo	*	*	*	*	*	*	*	*	*	*	*	*	*	*	*
!	!	!	!	!	!	!	!	!LO:N:vis=0	!	!LO:N:vis=0	!	!	!	!	!
8GG/L	.	8b-\	.	8dd-X\	.	.	.	1.r	.	1.r	.	2.r	.	2.r	.
8GG/	.	4b-\	.	4dd-\	.	.	.	.	.	.	.	.	.	.	.
8GG/	.	.	.	.	.	.	.	.	.	.	.	.	.	.	.
8GG/	.	(16cc\LL	.	(16ee-\LL	.	.	.	.	.	.	.	.	.	.	.
.	.	16b-\JJ)	.	16dd-\JJ)	.	.	.	.	.	.	.	.	.	.	.
8GG/	.	8a-/L	.	8cc\L	.	.	.	.	.	.	.	.	.	.	.
8GG/J	.	8g/J	.	8b-\J	.	.	.	.	.	.	.	.	.	.	.
!	!	!	!	!LO:LB:g=original	!	!	!	!	!	!	!	!	!	!	!
=16	=16	=16	=16	=16	=16	=16	=16	=16	=16	=16	=16	=16	=16	=16	=16
8AA-/L	.	8g/L	.	8bn\L	.	.	.	.	.	.	.	4r	.	4r	.
8AA-/	.	8.a-/J	.	8.cc\J	.	.	.	.	.	.	.	.	.	.	.
8AA-/	.	.	.	.	.	.	.	.	.	.	.	4r	.	4r	.
.	.	16bn\LL	.	16ddn\LL	.	.	.	.	.	.	.	.	.	.	.
8AA-/	.	16cc\	.	16ee-\	.	.	.	.	.	.	.	.	.	.	.
.	.	16b\JJ	.	16dd\JJ	.	.	.	.	.	.	.	.	.	.	.
8AA-/	.	16dd\LL	.	16ff\LL	.	.	.	.	.	.	.	(16dd\LL	.	(16ff\LL	.
.	.	16cc\	.	16ee-\	.	.	.	.	.	.	.	16cc\)	.	16ee-\)	.
8AA-/J	.	16b-X\	.	16dd\	.	.	.	.	.	.	.	(16b-\	.	(16dd\	.
.	.	16a-\JJ	.	16cc\JJ	.	.	.	.	.	.	.	16a-\JJ)	.	16cc\JJ)	.
*Xtremolo	*	*	*	*	*	*	*	*	*	*	*	*	*	*	*
!	!	!	!	!	!	!	!	!	!	!	!	!LO:LB:g=original	!	!	!
=17	=17	=17	=17	=17	=17	=17	=17	=17	=17	=17	=17	=17	=17	=17	=17
!	!	!	!	!	!	!LO:N:vis=0	!	!	!	!	!	!	!	!	!
4BB-/	.	8g/L	.	8b-\L	.	1.r	.	8G/L	.	8e-\L	.	(8g/L	.	(8b-\L	.
.	.	8B-/	.	8ee-\J	.	.	.	8G/J	.	8e-\J	.	8e-/J)	.	8g\J)	.
4BB-/	.	8e-/	.	16g/LL	.	.	.	4G/	.	4e-\	.	4G/	.	4e-/	.
.	.	.	.	16e-/	.	.	.	.	.	.	.	.	.	.	.
.	.	8B-/	.	16cc/	.	.	.	.	.	.	.	.	.	.	.
.	.	.	.	16b-/JJ	.	.	.	.	.	.	.	.	.	.	.
8B-\L	.	8f/	.	16b-/LL	.	.	.	4r	.	4r	.	4r	.	4r	.
.	.	.	.	16a-/	.	.	.	.	.	.	.	.	.	.	.
8B-\J	.	8B-/J	.	16f/	.	.	.	.	.	.	.	.	.	.	.
.	.	.	.	16d/JJ	.	.	.	.	.	.	.	.	.	.	.
=18	=18	=18	=18	=18	=18	=18	=18	=18	=18	=18	=18	=18	=18	=18	=18
4B-\	.	8f/L	.	8en/L	.	.	.	4r	.	4r	.	4r	.	4r	.
.	.	8B-/	.	8.f/J	.	.	.	.	.	.	.	.	.	.	.
!	!	!	!	!	!	!	!	!	!LO:DY:B:i:t=for	!	!LO:DY:B:i:t=fr.	!LO:SIC:v:s=4b-\	!LO:DY:rj:B:i:t=for	!	!LO:DY:B:i:t=for
4BB-/	.	8f/	.	.	.	.	.	4B-/	f	4f\	f	4a-\	f	4ff\	f
.	.	.	.	(16cc/LL	.	.	.	.	.	.	.	.	.	.	.
.	.	8B-/J	.	16b-/)	.	.	.	.	.	.	.	.	.	.	.
.	.	.	.	16d/JJ	.	.	.	.	.	.	.	.	.	.	.
!	!	!	!	!LO:SIC:v:n=1:s=4e-	!	!	!	!	!	!LO:SIC:v:s=4e-\	!	!	!	!LO:TX:t=P:problem=nad kreską taktową ołówkiem dopisany x	!
4E-\	.	4e- 4B-/	.	4e 4G/	.	.	.	4G/	.	4f\	.	4g\	.	4ee-\	.
!	!	!LO:LB:g=original	!	!	!	!	!	!	!	!	!	!	!	!	!
=19	=19	=19	=19	=19	=19	=19	=19	=19	=19	=19	=19	=19	=19	=19	=19
2.r	.	2.r	.	2.r	.	4E-\	Sal-	4E-/	.	4e-\	.	2.r	.	2.r	.
.	.	.	.	.	.	4G\	-ve	4G/	.	4g\	.	.	.	.	.
.	.	.	.	.	.	4B-\	Re-	4B-/	.	4b-\	.	.	.	.	.
=20	=20	=20	=20	=20	=20	=20	=20	=20	=20	=20	=20	=20	=20	=20	=20
4r	.	4r	.	4r	.	4e-\	-gi-	4e-\	.	4ee-\	.	4r	.	4r	.
*	*	*	*	*	*	*	*	*tremolo	*	*tremolo	*	*	*	*	*
4r	.	4r	.	4r	.	4E-\	-na	8E-/L	.	8e-\L	.	4r	.	4r	.
.	.	.	.	.	.	.	.	8E-/	.	8e-\	.	.	.	.	.
*	*below	*	*	*	*	*	*	*	*	*	*	*	*	*	*
8E-\L	pp	(4g/	.	4bb-\	.	4r	.	8E-/	.	8e-\	.	4g/	.	4b-\	.
8E-\J	.	.	.	.	.	.	.	8E-/J	.	8e-\J	.	.	.	.	.
=21	=21	=21	=21	=21	=21	=21	=21	=21	=21	=21	=21	=21	=21	=21	=21
*tremolo	*	*	*	*	*	*	*	*	*	*	*	*	*	*	*
8E-\L	.	4a-/)	.	(4ccc\	.	2.r	.	8E-/L	.	8e-\L	.	4a-/	.	4cc\	.
8E-\	.	.	.	.	.	.	.	8E-/	.	8e-\	.	.	.	.	.
8E-\	.	4g/	.	4bb-\)	.	.	.	8E-/	.	8e-\	.	4g/	.	4b-\	.
8E-\	.	.	.	.	.	.	.	8E-/	.	8e-\	.	.	.	.	.
8E-\	.	(4f/	.	(4aa-\	.	.	.	8E-/	.	8e-\	.	4f/	.	4a-\	.
8E-\J	.	.	.	.	.	.	.	8E-/J	.	8e-\J	.	.	.	.	.
*Xtremolo	*	*	*	*	*	*	*	*Xtremolo	*	*Xtremolo	*	*	*	*	*
!LO:LB:g=original	!	!	!	!	!	!	!	!	!	!LO:LB:g=original	!	!	!	!LO:LB:g=original	!
=22	=22	=22	=22	=22	=22	=22	=22	=22	=22	=22	=22	=22	=22	=22	=22
4E-\	.	4e-/)	.	4gg\)	.	4E-\	Ma-	4E-/	.	4e-\	.	4e-/	.	4g/	.
4r	.	4r	.	4r	.	8.G\L	-ter	4G/	.	4g\	.	4r	.	4r	.
.	.	.	.	.	.	16G\Jk	mi-	.	.	.	.	.	.	.	.
4r	.	4r	.	4r	.	8.B-\L	-se-	4B-/	.	4b-\	.	4r	.	4r	.
.	.	.	.	.	.	16B-\Jk	-ri-	.	.	.	.	.	.	.	.
!	!	!	!	!LO:LB:g=original	!	!	!	!	!	!	!	!	!	!	!
=23	=23	=23	=23	=23	=23	=23	=23	=23	=23	=23	=23	=23	=23	=23	=23
!	!	!	!	!	!	!	!	!LO:TX:a:t=P:problem=mixedbeam	!	!	!	!	!	!	!
4r	.	4r	.	4r	.	8.e-\L	-cor-	8e-\L	.	8ee-\L	.	4r	.	4r	.
.	.	.	.	.	.	.	.	8E-/J	.	8e-\J	.	.	.	.	.
.	.	.	.	.	.	16E-\Jk	-di-	.	.	.	.	.	.	.	.
*	*	*	*	*	*	*	*	*tremolo	*	*tremolo	*	*	*	*	*
4r	.	4r	.	4r	.	4E-\	-ae	8E-/L	.	8e-\L	.	4r	.	4r	.
.	.	.	.	.	.	.	.	8E-/	.	8e-\	.	.	.	.	.
8E-\L	.	4B-/	.	4g/	.	4r	.	8E-/	.	8e-\	.	4b-\	.	4gg\	.
8E-\J	.	.	.	.	.	.	.	8E-/J	.	8e-\J	.	.	.	.	.
*	*	*	*	*	*	*	*	*Xtremolo	*	*Xtremolo	*	*	*	*	*
!	!	!	!	!	!	!LO:LB:g=original	!	!LO:LB:g=original	!	!	!	!	!	!	!
=24	=24	=24	=24	=24	=24	=24	=24	=24	=24	=24	=24	=24	=24	=24	=24
*tremolo	*	*	*	*	*	*	*	*	*	*	*	*	*	*	*
8E-\L	.	4c/	.	4a-/	.	2.r	.	4E-/	.	4e-\	.	4cc\	.	4aa-\	.
8E-\	.	.	.	.	.	.	.	.	.	.	.	.	.	.	.
8E-\	.	4B-/	.	4g/	.	.	.	4E-/	.	4e-\	.	4b-\	.	4gg\	.
8E-\	.	.	.	.	.	.	.	.	.	.	.	.	.	.	.
8E-\	.	4A-/	.	4f/	.	.	.	4E-/	.	4e-\	.	4a-\	.	4ff\	.
8E-\J	.	.	.	.	.	.	.	.	.	.	.	.	.	.	.
*Xtremolo	*	*	*	*	*	*	*	*	*	*	*	*	*	*	*
=25	=25	=25	=25	=25	=25	=25	=25	=25	=25	=25	=25	=25	=25	=25	=25
!	!	!	!	!	!	!	!	!LO:TX:a:t=P:problem=mixedbeam	!	!	!	!	!	!	!
8E-\	.	4G/	.	8e-/	.	8r	.	8G/L	.	8e-\L	.	8g\	.	8ee-\	.
8r	.	.	.	8r	.	8B-\	Vi-	8g\J	.	8b-\J	.	8r	.	8r	.
8E-\	.	4r	.	8r	.	(8B-\L	-ta	8g\L	.	8b-\L	.	4r	.	4r	.
8r	.	.	.	(8gg\L	.	8G\)	.	8e-\	.	8g\	.	.	.	.	.
8E-\	.	(8g/L	.	8bb-\	.	(8B-\	dul-	8g\	.	8b-\	.	(8.g/L	.	(8.b-/L	.
8r	.	8e-/J)	.	8gg\J)	.	8G\J)	.	8e-\J	.	8g\J	.	.	.	.	.
.	.	.	.	.	.	.	.	.	.	.	.	16e-/Jk)	.	16g/Jk)	.
!	!	!	!	!	!	!	!	!	!	!	!	!LO:LB:g=original	!	!	!
=26	=26	=26	=26	=26	=26	=26	=26	=26	=26	=26	=26	=26	=26	=26	=26
8A-\	.	8.f/L	.	8.aa-\L	.	8.A-\L	-ce-	4f\	.	4a-\	.	4r	.	4r	.
8r	.	.	.	.	.	.	.	.	.	.	.	.	.	.	.
.	.	16g/Jk	.	16bb-\Jk	.	16B-\Jk	.	.	.	.	.	.	.	.	.
8AA-/	.	4a-/	.	4ccc\	.	4c\	-do	4r	.	4r	.	8r	.	8r	.
8r	.	.	.	.	.	.	.	.	.	.	.	(16f/LL	.	(16a-\LL	.
.	.	.	.	.	.	.	.	.	.	.	.	16g/JJ)	.	16b-\JJ)	.
4r	.	4r	.	4r	.	4r	.	4r	.	4r	.	4a-/	.	4cc\	.
=27	=27	=27	=27	=27	=27	=27	=27	=27	=27	=27	=27	=27	=27	=27	=27
!!LO:TX:t=P:problem:niezgodność pionów w takcie
8BB-/	.	8r	.	8r	.	8F\L	et	8B-/	.	8f\	.	4r	.	4r	.
8r	.	8d/L	.	8ff\	.	8F\J	spes	8r	.	8r	.	.	.	.	.
8B-\	.	8g/	.	(16bb-\LL	.	4B-\	no-	8B-/	.	8f\	.	8r	.	8r	.
.	.	.	.	16ccc\)	.	.	.	.	.	.	.	.	.	.	.
8r	.	8f/	.	(16aa-\	.	.	.	8r	.	8r	.	8gg\	.	8bb-\	.
.	.	.	.	16bb-\JJ)	.	.	.	.	.	.	.	.	.	.	.
8BB-/	.	8e-/	.	(16gg\LL	.	4A-\	-stra	8B-/	.	8f\	.	8r	.	8r	.
.	.	.	.	16aa-\)	.	.	.	.	.	.	.	.	.	.	.
8r	.	8d/J	.	(16ff\	.	.	.	8r	.	8r	.	8ff\	.	8aa-\	.
.	.	.	.	16aa-\JJ)	.	.	.	.	.	.	.	.	.	.	.
!LO:LB:g=original	!	!LO:LB:g=original	!	!	!	!	!	!	!	!LO:LB:g=original	!	!	!	!	!
=28	=28	=28	=28	=28	=28	=28	=28	=28	=28	=28	=28	=28	=28	=28	=28
8E-\	.	8.e-/L	.	8.gg\L	.	8.G\L	Sal-	8e-\L	.	8g\L	.	4r	.	4r	.
8r	.	.	.	.	.	.	.	8f\J	.	8a-\J	.	.	.	.	.
.	.	16f/Jk	.	16aa-\Jk	.	16A-\Jk	.	.	.	.	.	.	.	.	.
8e-\	.	4g/	.	4bb-\	.	4B-\	-ve	4g\	.	4b-\	.	8r	.	8r	.
8r	.	.	.	.	.	.	.	.	.	.	.	(16ee-\LL	.	(16gg\LL	.
.	.	.	.	.	.	.	.	.	.	.	.	16ff\JJ)	.	16aa-\JJ)	.
!	!	!	!	!	!	!	!	!	!	!	!	!	!	!LO:LB:g=original	!
4r	.	4r	.	4r	.	4r	.	4r	.	4r	.	4gg\	.	4bb-\	.
!	!	!	!	!	!	!LO:LB:g=original	!	!	!	!	!	!	!	!	!
=29	=29	=29	=29	=29	=29	=29	=29	=29	=29	=29	=29	=29	=29	=29	=29
8r	.	8r	.	8r	.	4B-\	ad	4B-/	.	4b-\	.	2.r	.	2.r	.
!	!	!	!LO:DY:rj:B:i:t=p.	!	!LO:DY:rj	!	!	!	!	!	!	!	!	!	!
8E-\L	.	32B-/LLL	p	32b-\LLL	pp	.	.	.	.	.	.	.	.	.	.
.	.	32B-/	.	32b-\	.	.	.	.	.	.	.	.	.	.	.
.	.	32B-/	.	32b-\	.	.	.	.	.	.	.	.	.	.	.
.	.	32B-/JJJ	.	32b-\JJJ	.	.	.	.	.	.	.	.	.	.	.
!	!	!	!	!LO:LB:g=original	!	!	!	!	!	!	!	!	!	!	!
8E-\J	.	8e-/L	.	16r	.	8e-\L	te	8e-/L	.	8ee-\L	.	.	.	.	.
.	.	.	.	16ee-\	.	.	.	.	.	.	.	.	.	.	.
8r	.	8B-/	.	16r	.	8B-\J	cla-	8B-/	.	8b-\	.	.	.	.	.
.	.	.	.	16b-\	.	.	.	.	.	.	.	.	.	.	.
4r	.	8G/	.	16r	.	8G\L	-ma-	8G/	.	8g\	.	.	.	.	.
.	.	.	.	16g/	.	.	.	.	.	.	.	.	.	.	.
.	.	8e-/J	.	16r	.	8E-\J	-mus	8E-/J	.	8e-\J	.	.	.	.	.
.	.	.	.	16e-/	.	.	.	.	.	.	.	.	.	.	.
!	!	!	!	!	!	!	!	!LO:LB:g=original	!	!	!	!	!	!	!
=30	=30	=30	=30	=30	=30	=30	=30	=30	=30	=30	=30	=30	=30	=30	=30
8r	.	8r	.	8r	.	4D-X\	e-	4G/	.	4g\	.	4g/	.	4b-\	.
16En\LL	.	32B-/LLL	>	32d-X/LLL	>	.	.	.	.	.	.	.	.	.	.
.	.	32B-/	.	32d-/	.	.	.	.	.	.	.	.	.	.	.
16E\JJ	.	32B-/	.	32d-/	.	.	.	.	.	.	.	.	.	.	.
.	.	32B-/JJJ	.	32d-/JJJ	.	.	.	.	.	.	.	.	.	.	.
*	*	*tremolo	*	*tremolo	*	*	*	*	*	*	*	*	*	*	*
16E\LL	.	32B-/LLL	]	32d-/LLL	]	8D-\L	-xu-	2G/	.	2g\	.	2g/	.	2b-\	.
.	.	32B-/	.	32d-/	.	.	.	.	.	.	.	.	.	.	.
16E\	.	32B-/	.	32d-/	.	.	.	.	.	.	.	.	.	.	.
.	.	32B-/	.	32d-/	.	.	.	.	.	.	.	.	.	.	.
16E\	.	32B-/	.	32d-/	.	8D-\J	-les	.	.	.	.	.	.	.	.
.	.	32B-/	.	32d-/	.	.	.	.	.	.	.	.	.	.	.
16E\JJ	.	32B-/	.	32d-/	.	.	.	.	.	.	.	.	.	.	.
.	.	32B-/	.	32d-/	.	.	.	.	.	.	.	.	.	.	.
*tremolo	*	*	*	*	*	*	*	*	*	*	*	*	*	*	*
16E\LL	.	32B-	.	32d-/	.	8D-\L	Fi-	.	.	.	.	.	.	.	.
.	.	32B-/	.	32d-/	.	.	.	.	.	.	.	.	.	.	.
16E\	.	32B-/	.	32d-/	.	.	.	.	.	.	.	.	.	.	.
.	.	32B-/	.	32d-/	.	.	.	.	.	.	.	.	.	.	.
16E\	.	32B-/	.	32d-/	.	16D-\L	-li-	.	.	.	.	.	.	.	.
.	.	32B-/	.	32d-/	.	.	.	.	.	.	.	.	.	.	.
16E\JJ	.	32B-/	.	32d-/	.	16D-\JJ	-i	.	.	.	.	.	.	.	.
.	.	32B-/JJJ	.	32d-/JJJ	.	.	.	.	.	.	.	.	.	.	.
*Xtremolo	*	*	*	*	*	*	*	*	*	*	*	*	*	*	*
=31	=31	=31	=31	=31	=31	=31	=31	=31	=31	=31	=31	=31	=31	=31	=31
!LO:SIC:v:s=16En\LL	!	!	!	!LO:SIC:v:s=8dn/	!	!LO:SIC:v:s=(8D-\L	!	!LO:TX:a:t=P:problem=mixedbeam	!	!	!	!	!	!	!
16E-\LL	.	32B-/LLL	<	32d/LLL	.	(8D\L	E-	8G/L	.	8g\L	.	8g/L	.	8b-\L	.
.	.	32B-/	.	32d/	.	.	.	.	.	.	.	.	.	.	.
!LO:SIC:v:s=16En\LL	!	!	!	!	!	!	!	!	!	!	!	!	!	!	!
16E-\	.	32B-/	.	32d/	<	.	.	.	.	.	.	.	.	.	.
.	.	32B-/	.	32d/	.	.	.	.	.	.	.	.	.	.	.
16F\	.	32A-/	.	32c/	.	8C\J)	.	8f\J	.	8a-\J	.	8a-/J	.	8cc\J	.
.	.	32A-/	.	32c/	.	.	.	.	.	.	.	.	.	.	.
16F\JJ	.	32A-/	.	32c/	.	.	.	.	.	.	.	.	.	.	.
.	.	32A-/JJJ	.	32c/JJJ	.	.	.	.	.	.	.	.	.	.	.
*tremolo	*	*	*	*	*	*	*	*	*	*	*	*	*	*	*
16F\LL	.	32A-/LLL	.	32c/LLL	[	4C/	-vae	2f\	.	2a-\	.	2a-/	.	2cc\	.
.	.	32A-/	.	32c/	.	.	.	.	.	.	.	.	.	.	.
16F\	.	32A-/	[	32c/	.	.	.	.	.	.	.	.	.	.	.
.	.	32A-/	.	32c/	.	.	.	.	.	.	.	.	.	.	.
16F\	.	32A-/	.	32c/	.	.	.	.	.	.	.	.	.	.	.
.	.	32A-/	[	32c/	.	.	.	.	.	.	.	.	.	.	.
16F\JJ	.	32A-/	.	32c/	.	.	.	.	.	.	.	.	.	.	.
.	.	32A-/	.	32c/	.	.	.	.	.	.	.	.	.	.	.
16F\LL	.	32A-/	.	32c/	.	4r	.	.	.	.	.	.	.	.	.
.	.	32A-/	.	32c/	.	.	.	.	.	.	.	.	.	.	.
16F\	.	32A-/	.	32c/	.	.	.	.	.	.	.	.	.	.	.
.	.	32A-/	.	32c/	.	.	.	.	.	.	.	.	.	.	.
16F\	.	32A-/	.	32c/	.	.	.	.	.	.	.	.	.	.	.
.	.	32A-/	.	32c/	.	.	.	.	.	.	.	.	.	.	.
16F\JJ	.	32A-/	.	32c/	.	.	.	.	.	.	.	.	.	.	.
.	.	32A-/JJJ	.	32c/JJJ	.	.	.	.	.	.	.	.	.	.	.
*Xtremolo	*	*Xtremolo	*	*Xtremolo	*	*	*	*	*	*	*	*	*	*	*
=32	=32	=32	=32	=32	=32	=32	=32	=32	=32	=32	=32	=32	=32	=32	=32
!	!	!LO:SIC:v:s=8An/	!	!LO:TX:t=P:problem=brak taktu	!	!	!	!	!	!	!	!	!	!	!
8F\	.	8A-/	.	2.ryy	.	4c\	ad	2.r	.	2.r	.	4a\	.	4cc\	.
8r	.	8r	.	.	.	.	.	.	.	.	.	.	.	.	.
4r	.	4r	.	.	.	(8F\L	te	.	.	.	.	8a\L	.	8ff\L	.
.	.	.	.	.	.	8c\J)	.	.	.	.	.	8a\J	.	8cc\J	.
4r	.	4r	.	.	.	8.An\L	sus-	.	.	.	.	4f/	.	8a/L	.
.	.	.	.	.	.	.	.	.	.	.	.	.	.	8f/J	.
.	.	.	.	.	.	16F\Jk	-pi-	.	.	.	.	.	.	.	.
!LO:LB:g=original	!	!	!	!	!	!LO:LB:g=original	!	!	!	!	!	!LO:LB:g=original	!	!	!
=33	=33	=33	=33	=33	=33	=33	=33	=33	=33	=33	=33	=33	=33	=33	=33
*tremolo	*	*	*	*	*	*	*	*	*	*	*	*	*	*	*
16GG/LL	.	8r	.	8r	.	4En\	-ra-	4BB-/	.	4B-/	.	4g/	.	4b-\	.
16GG/	.	.	.	.	.	.	.	.	.	.	.	.	.	.	.
16GG/	.	32c/LLL	.	32en/LLL	.	.	.	.	.	.	.	.	.	.	.
.	.	32c/	.	32e/	.	.	.	.	.	.	.	.	.	.	.
16GG/JJ	.	32c/	.	32e/	.	.	.	.	.	.	.	.	.	.	.
.	.	32c/JJJ	.	32e/JJJ	.	.	.	.	.	.	.	.	.	.	.
*	*	*tremolo	*	*tremolo	*	*	*	*	*	*	*	*	*	*	*
16GG/LL	.	32c/LLL	.	32e/LLL	.	8E\L	-mus	2BB-/	.	2B-/	.	2g/	.	2b-\	.
.	.	32c/	.	32e/	.	.	.	.	.	.	.	.	.	.	.
16GG/	.	32c/	.	32e/	.	.	.	.	.	.	.	.	.	.	.
.	.	32c/	.	32e/	.	.	.	.	.	.	.	.	.	.	.
16GG/	.	32c/	.	32e/	.	8E\J	ge-	.	.	.	.	.	.	.	.
.	.	32c/	.	32e/	.	.	.	.	.	.	.	.	.	.	.
16GG/	.	32c/	.	32e/	.	.	.	.	.	.	.	.	.	.	.
.	.	32c/	.	32e/	.	.	.	.	.	.	.	.	.	.	.
16GG/	.	32c/	.	32e/	.	8E\L	-men-	.	.	.	.	.	.	.	.
.	.	32c/	.	32e/	.	.	.	.	.	.	.	.	.	.	.
16GG/	.	32c/	.	32e/	.	.	.	.	.	.	.	.	.	.	.
.	.	32c/	.	32e/	.	.	.	.	.	.	.	.	.	.	.
16GG/	.	32c/	.	32e/	.	16E\L	-tes	.	.	.	.	.	.	.	.
.	.	32c/	.	32e/	.	.	.	.	.	.	.	.	.	.	.
16GG/JJ	.	32c/	.	32e/	.	16E\JJ	et	.	.	.	.	.	.	.	.
.	.	32c/JJJ	.	32e/JJJ	.	.	.	.	.	.	.	.	.	.	.
*Xtremolo	*	*Xtremolo	*	*	*	*	*	*	*	*	*	*	*	*	*
!	!	!LO:LB:g=original	!	!	!	!	!	!	!	!	!	!	!	!	!
=34	=34	=34	=34	=34	=34	=34	=34	=34	=34	=34	=34	=34	=34	=34	=34
!	!	!	!	!LO:SIC:v:s=8en/	!	!LO:SIC:v:s=(8En\L	!	!LO:TX:a:t=P:problem=mixedbeam	!	!	!	!	!	!	!
16GG/LL	.	32c/LLL	.	32e-/LLL	.	(8E-\L	flen-	8BB-/L	.	8B-\L	.	8g/L	.	8eeX\L	.
.	.	32c/	.	32e-/	.	.	.	.	.	.	.	.	.	.	.
16GG/	.	32c/	.	32e-/	.	.	.	.	.	.	.	.	.	.	.
.	.	32c/	.	32e-/	.	.	.	.	.	.	.	.	.	.	.
16AA-/	.	32c/	.	32f/	.	8F\J)	.	8f\J	.	8a-\J	.	8a-/J	.	8ff\J	.
.	.	32c/	.	32f/	.	.	.	.	.	.	.	.	.	.	.
16AA-/JJ	.	32c/	.	32f/	.	.	.	.	.	.	.	.	.	.	.
.	.	32c/JJJ	.	32f/JJJ	.	.	.	.	.	.	.	.	.	.	.
*tremolo	*	*	*	*Xtremolo	*	*	*	*	*	*	*	*	*	*	*
16AA-/LL	.	32f/LLL	.	32f/LLL	.	4F\	-tes	2f\	.	2a-\	.	2a-\	.	2ff\	.
.	.	32c/	.	32c/	.	.	.	.	.	.	.	.	.	.	.
16AA-/	.	32d/	.	32d/	.	.	.	.	.	.	.	.	.	.	.
!	!	!LO:SIC:v:s=32en/	!	!	!	!	!	!	!	!	!	!	!	!	!
.	.	32e-/	.	32en/	.	.	.	.	.	.	.	.	.	.	.
16AA-/	.	32f/	.	32f/	.	.	.	.	.	.	.	.	.	.	.
.	.	32g/	.	32g/	.	.	.	.	.	.	.	.	.	.	.
16AA-/	.	32a-/	.	32a-/	.	.	.	.	.	.	.	.	.	.	.
.	.	32g/JJJ	.	32g/JJJ	.	.	.	.	.	.	.	.	.	.	.
*	*	*rep	*	*	*	*	*	*	*	*	*	*	*	*	*
!	!	!	!	!LO:LB:g=original	!	!	!	!	!	!	!	!	!	!	!
16AA-/	.	32f/LLL	.	32f/LLL	.	4r	.	.	.	.	.	.	.	.	.
.	.	32c/	.	32c/	.	.	.	.	.	.	.	.	.	.	.
16AA-/	.	32d/	.	32d/	.	.	.	.	.	.	.	.	.	.	.
!	!	!LO:SIC:v:s=32en/	!	!	!	!	!	!	!	!	!	!	!	!	!
.	.	32e-/	.	32en/	.	.	.	.	.	.	.	.	.	.	.
16AA-/	.	32f/	.	32f/	.	.	.	.	.	.	.	.	.	.	.
.	.	32g/	.	32g/	.	.	.	.	.	.	.	.	.	.	.
16AA-/JJ	.	32a-/	.	32a-/	.	.	.	.	.	.	.	.	.	.	.
.	.	32g/JJJ	.	32g/JJJ	.	.	.	.	.	.	.	.	.	.	.
*Xtremolo	*	*Xrep	*	*	*	*	*	*	*	*	*	*	*	*	*
!	!	!	!	!	!	!	!	!	!	!LO:LB:g=original	!	!	!	!	!
=35	=35	=35	=35	=35	=35	=35	=35	=35	=35	=35	=35	=35	=35	=35	=35
!	!	!	!	!	!	!LO:N:vis=0	!	!	!	!	!	!	!	!	!
8F\L	.	32f/LLL	.	32f/LLL	.	1.r	.	4f\	.	4a-\	.	4cc\	.	4ff\	.
.	.	32c/	.	32c/	.	.	.	.	.	.	.	.	.	.	.
.	.	32d/	.	32d/	.	.	.	.	.	.	.	.	.	.	.
!	!	!LO:SIC:v:s=32en/	!	!LO:SIC:v:s=32en/	!	!	!	!	!	!	!	!	!	!	!
.	.	32e-/	.	32e-/	.	.	.	.	.	.	.	.	.	.	.
8C\J	.	32f/	.	32f/	.	.	.	.	.	.	.	.	.	.	.
.	.	32g/	.	32g/	.	.	.	.	.	.	.	.	.	.	.
.	.	32a-/	.	32a-/	.	.	.	.	.	.	.	.	.	.	.
.	.	32b-/JJJ	.	32b-/JJJ	.	.	.	.	.	.	.	.	.	.	.
*tremolo	*	*	*	*	*	*	*	*tremolo	*	*tremolo	*	*tremolo	*	*tremolo	*
8F\L	.	32cc/LLL	.	32cc/LLL	.	.	.	8f\L	.	8a-\L	.	8cc\L	.	8ff\L	.
.	.	32b-/	.	32b-/	.	.	.	.	.	.	.	.	.	.	.
.	.	32a-/	.	32a-/	.	.	.	.	.	.	.	.	.	.	.
.	.	32g/	.	32g/	.	.	.	.	.	.	.	.	.	.	.
8F\	.	32f/	.	32f/	.	.	.	8f\	.	8a-\	.	8cc\	.	8ff\	.
.	.	32g/	.	32g/	.	.	.	.	.	.	.	.	.	.	.
.	.	32a-/	.	32a-/	.	.	.	.	.	.	.	.	.	.	.
.	.	32b-/JJJ	.	32b-/JJJ	.	.	.	.	.	.	.	.	.	.	.
8F\	.	32cc/LLL	.	32cc/LLL	.	.	.	8f\	.	8a-\	.	8cc\	.	8ff\	.
.	.	32b-/	.	32b-/	.	.	.	.	.	.	.	.	.	.	.
.	.	32a-/	.	32a-/	.	.	.	.	.	.	.	.	.	.	.
.	.	32g/	.	32g/	.	.	.	.	.	.	.	.	.	.	.
8F\J	.	32cc/	.	32cc/	.	.	.	8f\J	.	8a-\J	.	8cc\J	.	8ff\J	.
.	.	32b-/	.	32b-/	.	.	.	.	.	.	.	.	.	.	.
.	.	32a-/	.	32a-/	.	.	.	.	.	.	.	.	.	.	.
.	.	32g/JJJ	.	32g/JJJ	.	.	.	.	.	.	.	.	.	.	.
*Xtremolo	*	*	*	*	*	*	*	*Xtremolo	*	*Xtremolo	*	*Xtremolo	*	*Xtremolo	*
!	!	!LO:LB:g=original	!	!	!	!	!	!	!	!	!	!	!	!LO:LB:g=original	!
=36	=36	=36	=36	=36	=36	=36	=36	=36	=36	=36	=36	=36	=36	=36	=36
*	*	*tremolo	*	*	*	*	*	*	*	*	*	*	*	*	*
8G\L	.	16enLL 16c/	.	32dd-X/LLL	.	.	.	4g\	.	4b-\	.	4eeX\	.	4gg\	.
.	.	.	.	32cc/	.	.	.	.	.	.	.	.	.	.	.
.	.	16e 16c/	.	32b-/	.	.	.	.	.	.	.	.	.	.	.
.	.	.	.	32a-/	.	.	.	.	.	.	.	.	.	.	.
8G\	.	16e 16c/	.	32g/	.	.	.	.	.	.	.	.	.	.	.
.	.	.	.	32f/	.	.	.	.	.	.	.	.	.	.	.
.	.	16e 16c/	.	32en/	.	.	.	.	.	.	.	.	.	.	.
.	.	.	.	32d/JJJ	.	.	.	.	.	.	.	.	.	.	.
*	*	*	*	*	*	*	*	*tremolo	*	*tremolo	*	*tremolo	*	*tremolo	*
8En\	.	16e 16c/	.	32c/LLL	.	.	.	8g\L	.	8b-\L	.	8ee\L	.	8gg\L	.
.	.	.	.	32e/	.	.	.	.	.	.	.	.	.	.	.
.	.	16e 16c/	.	32g/	.	.	.	.	.	.	.	.	.	.	.
.	.	.	.	32f/	.	.	.	.	.	.	.	.	.	.	.
8E\	.	16e 16c/	.	32en/	.	.	.	8g\	.	8b-\	.	8ee\	.	8gg\	.
.	.	.	.	32g/	.	.	.	.	.	.	.	.	.	.	.
.	.	16e 16c/	.	32b-/	.	.	.	.	.	.	.	.	.	.	.
.	.	.	.	32a-/JJJ	.	.	.	.	.	.	.	.	.	.	.
!	!	!	!	!LO:LB:g=original	!	!	!	!	!	!	!	!	!	!	!
8C\	.	16e 16c/	.	32g/LLL	.	.	.	8g\	.	8b-\	.	8ee\	.	8gg\	.
.	.	.	.	32b-/	.	.	.	.	.	.	.	.	.	.	.
.	.	16e 16c/	.	32dd-X/	.	.	.	.	.	.	.	.	.	.	.
.	.	.	.	32cc/	.	.	.	.	.	.	.	.	.	.	.
8C\J	.	16e 16c/	.	32een/	.	.	.	8g\J	.	8b-\J	.	8ee\J	.	8gg\J	.
.	.	.	.	32cc/	.	.	.	.	.	.	.	.	.	.	.
.	.	16eJJ 16c/	.	32gg/	.	.	.	.	.	.	.	.	.	.	.
.	.	.	.	32ee/JJJ	.	.	.	.	.	.	.	.	.	.	.
*	*	*	*	*	*	*	*	*Xtremolo	*	*Xtremolo	*	*Xtremolo	*	*Xtremolo	*
=37	=37	=37	=37	=37	=37	=37	=37	=37	=37	=37	=37	=37	=37	=37	=37
!	!	!LO:SIC:v:n=1:s=4en/	!	!	!	!	!	!	!	!	!	!	!	!	!
8c\L	.	16e-LL 16c/	.	32bb-\LLL	.	4r	.	4g\	.	4b-\	.	4eeX\	.	4gg\	.
.	.	.	.	32aa-\	.	.	.	.	.	.	.	.	.	.	.
.	.	16e- 16c/	.	32gg\	.	.	.	.	.	.	.	.	.	.	.
.	.	.	.	32ff\	.	.	.	.	.	.	.	.	.	.	.
8c\J	.	16e- 16c/	.	32een\	.	.	.	.	.	.	.	.	.	.	.
.	.	.	.	32ff\	.	.	.	.	.	.	.	.	.	.	.
.	.	16e-JJ 16c/	.	32gg\	.	.	.	.	.	.	.	.	.	.	.
.	.	.	.	32aa-\JJJ	.	.	.	.	.	.	.	.	.	.	.
*tremolo	*	*	*	*tremolo	*	*	*	*tremolo	*	*tremolo	*	*tremolo	*	*tremolo	*
!	!	!	!LO:DY:rj:B:i:t=for	!	!LO:DY:rj:B:i:t=for	!	!	!	!	!	!	!	!	!	!
16d\LL	.	16fLL 16d/	f	32bbn\LLL	f	8Bn\L	in	8d\L	.	8f\L	.	8ff\L	.	8gg\L	.
.	.	.	.	32bb\	.	.	.	.	.	.	.	.	.	.	.
16d\	.	16f 16d/	.	32bb\	.	.	.	.	.	.	.	.	.	.	.
.	.	.	.	32bb\	.	.	.	.	.	.	.	.	.	.	.
16d\	.	16f 16d/	.	32bb\	.	8B\J	hac	8d\	.	8f\	.	8ff\	.	8gg\	.
.	.	.	.	32bb\	.	.	.	.	.	.	.	.	.	.	.
16d\	.	16f 16d/	.	32bb\	.	.	.	.	.	.	.	.	.	.	.
.	.	.	.	32bb\	.	.	.	.	.	.	.	.	.	.	.
16d\	.	16f 16d/	.	32bb\	.	16B\	la-	8d\	.	8f\	.	8ff\	.	8gg\	.
.	.	.	.	32bb\	.	.	.	.	.	.	.	.	.	.	.
16d\	.	16f 16d/	.	32bb\	.	16B\	-chri-	.	.	.	.	.	.	.	.
.	.	.	.	32bb\	.	.	.	.	.	.	.	.	.	.	.
16d\	.	16f 16d/	.	32bb\	.	16B\	-ma-	8d\J	.	8f\J	.	8ff\J	.	8gg\J	.
.	.	.	.	32bb\	.	.	.	.	.	.	.	.	.	.	.
16d\JJ	.	16fJJ 16d/	.	32bb\	.	16B\	-rum	.	.	.	.	.	.	.	.
.	.	.	.	32bb\JJJ	.	.	.	.	.	.	.	.	.	.	.
*Xtremolo	*	*	*	*Xtremolo	*	*	*	*Xtremolo	*	*Xtremolo	*	*Xtremolo	*	*Xtremolo	*
!	!	!	!	!	!	!LO:LB:g=original	!	!	!	!	!	!	!	!	!
=38	=38	=38	=38	=38	=38	=38	=38	=38	=38	=38	=38	=38	=38	=38	=38
8c\L	.	16enLL 16c/	.	8ccc\L	.	4c\	val-	4g\	.	4b-\	.	4eeX\	.	4gg\	.
.	.	16e 16c/	.	.	.	.	.	.	.	.	.	.	.	.	.
8c\J	.	16e 16c/	.	(16bbn\L	.	.	.	.	.	.	.	.	.	.	.
.	.	16e 16c/	.	16ccc\JJ)	.	.	.	.	.	.	.	.	.	.	.
8C/L	.	16e 16c/	.	32c/LLL	.	4C/	-le	2g\	.	2b-\	.	2ee\	.	2gg\	.
!	!	!	!	!LO:SIC:v:s=32Bn/	!	!	!	!	!	!	!	!	!	!	!
.	.	.	.	32B-/	.	.	.	.	.	.	.	.	.	.	.
.	.	16e 16c/	.	32c/	.	.	.	.	.	.	.	.	.	.	.
.	.	.	.	32d/	.	.	.	.	.	.	.	.	.	.	.
!	!	!	!	!LO:SIC:v:s=32en/	!	!	!	!	!	!	!	!	!	!	!
8C/	.	16e 16c/	.	32e-/	.	.	.	.	.	.	.	.	.	.	.
.	.	.	.	32d/	.	.	.	.	.	.	.	.	.	.	.
.	.	16e 16c/	.	32c/	.	.	.	.	.	.	.	.	.	.	.
!	!	!	!	!LO:SIC:v:s=32Bn/JJJ	!	!	!	!	!	!	!	!	!	!	!
.	.	.	.	32B-/JJJ	.	.	.	.	.	.	.	.	.	.	.
*	*	*	*	*rep	*	*	*	*	*	*	*	*	*	*	*
8C/	.	16e 16c/	.	32c/LLL	.	4r	.	.	.	.	.	.	.	.	.
!	!	!	!	!LO:SIC:v:s=32Bn/	!	!	!	!	!	!	!	!	!	!	!
.	.	.	.	32B-/	.	.	.	.	.	.	.	.	.	.	.
.	.	16e 16c/	.	32c/	.	.	.	.	.	.	.	.	.	.	.
.	.	.	.	32d/	.	.	.	.	.	.	.	.	.	.	.
!	!	!	!	!LO:SIC:v:s=32en/	!	!	!	!	!	!	!	!	!	!	!
8C/J	.	16e 16c/	.	32e-/	.	.	.	.	.	.	.	.	.	.	.
.	.	.	.	32d/	.	.	.	.	.	.	.	.	.	.	.
.	.	16eJJ 16c/	.	32c/	.	.	.	.	.	.	.	.	.	.	.
!	!	!	!	!LO:SIC:v:s=32Bn/JJJ	!	!	!	!	!	!	!	!	!	!	!
.	.	.	.	32B-/JJJ	.	.	.	.	.	.	.	.	.	.	.
*	*	*	*	*Xrep	*	*	*	*	*	*	*	*	*	*	*
!LO:LB:g=original	!	!	!	!	!	!	!	!LO:LB:g=original	!	!	!	!	!	!	!
=39	=39	=39	=39	=39	=39	=39	=39	=39	=39	=39	=39	=39	=39	=39	=39
*tremolo	*	*	*	*tremolo	*	*	*	*	*	*	*	*	*	*	*
!	!	!	!	!LO:SIC:v:s=2.bbn\	!	!	!	!	!	!	!	!	!	!	!
16D\LL	.	16fLL 16d/	.	32bb-\LLL	.	8Bn\L	e-	4d\	.	4f\	.	4ff\	.	4gg\	.
.	.	.	.	32bb-\	.	.	.	.	.	.	.	.	.	.	.
16D\	.	16f 16d/	.	32bb-\	.	.	.	.	.	.	.	.	.	.	.
.	.	.	.	32bb-\	.	.	.	.	.	.	.	.	.	.	.
16D\	.	16f 16d/	.	32bb-\	.	8B\J	-ia	.	.	.	.	.	.	.	.
.	.	.	.	32bb-\	.	.	.	.	.	.	.	.	.	.	.
16D\	.	16f 16d/	.	32bb-\	.	.	.	.	.	.	.	.	.	.	.
.	.	.	.	32bb-\	.	.	.	.	.	.	.	.	.	.	.
*	*	*	*	*	*	*	*	*tremolo	*	*tremolo	*	*tremolo	*	*tremolo	*
16D\	.	16f 16d/	.	32bb-\	.	8c\L	er-	8d\L	.	8f\L	.	8ff\L	.	8gg\L	.
.	.	.	.	32bb-\	.	.	.	.	.	.	.	.	.	.	.
16D\	.	16f 16d/	.	32bb-\	.	.	.	.	.	.	.	.	.	.	.
.	.	.	.	32bb-\	.	.	.	.	.	.	.	.	.	.	.
16D\	.	16f 16d/	.	32bb-\	.	8B\J	-go	8d\	.	8f\	.	8ff\	.	8gg\	.
.	.	.	.	32bb-\	.	.	.	.	.	.	.	.	.	.	.
16D\	.	16f 16d/	.	32bb-\	.	.	.	.	.	.	.	.	.	.	.
.	.	.	.	32bb-\	.	.	.	.	.	.	.	.	.	.	.
16D\	.	16f 16d/	.	32bb-\	.	16B\	ad-	8d\	.	8f\	.	8ff\	.	8gg\	.
.	.	.	.	32bb-\	.	.	.	.	.	.	.	.	.	.	.
16D\	.	16f 16d/	.	32bb-\	.	16B\	-vo-	.	.	.	.	.	.	.	.
.	.	.	.	32bb-\	.	.	.	.	.	.	.	.	.	.	.
16D\	.	16f 16d/	.	32bb-\	.	16B\	-ca-	8d\J	.	8f\J	.	8ff\J	.	8gg\J	.
.	.	.	.	32bb-\	.	.	.	.	.	.	.	.	.	.	.
16D\JJ	.	16fJJ 16d/	.	32bb-\	.	16B\	-ta	.	.	.	.	.	.	.	.
.	.	.	.	32bb-\JJJ	.	.	.	.	.	.	.	.	.	.	.
*Xtremolo	*	*	*	*	*	*	*	*Xtremolo	*	*Xtremolo	*	*Xtremolo	*	*Xtremolo	*
=40	=40	=40	=40	=40	=40	=40	=40	=40	=40	=40	=40	=40	=40	=40	=40
8C\L	.	16enLL 16c/	.	32ccc\LLL	.	4c\	no-	4g\	.	4b-\	.	4eeX\	.	4gg\	.
.	.	.	.	32ccc\	.	.	.	.	.	.	.	.	.	.	.
.	.	16e 16c/	.	32ccc\	.	.	.	.	.	.	.	.	.	.	.
.	.	.	.	32ccc\	.	.	.	.	.	.	.	.	.	.	.
8c\J	.	16e 16c/	.	32ccc\	.	.	.	.	.	.	.	.	.	.	.
.	.	.	.	32ccc\	.	.	.	.	.	.	.	.	.	.	.
.	.	16eJJ 16c/	.	32ccc\	.	.	.	.	.	.	.	.	.	.	.
.	.	.	.	32ccc\JJJ	.	.	.	.	.	.	.	.	.	.	.
*tremolo	*	*Xtremolo	*	*Xtremolo	*	*	*	*tremolo	*	*tremolo	*	*tremolo	*	*tremolo	*
8C/L	.	8c/L	.	32c/LLL	.	4C/	-stra	8g\L	.	8b-\L	.	8ee\L	.	8gg\L	.
.	.	.	.	32d/	.	.	.	.	.	.	.	.	.	.	.
.	.	.	.	32en/	.	.	.	.	.	.	.	.	.	.	.
.	.	.	.	32d/JJJ	.	.	.	.	.	.	.	.	.	.	.
*	*	*	*	*rep	*	*	*	*	*	*	*	*Xtremolo	*	*	*
!	!	!	!	!LO:LB:g=original	!	!	!	!	!	!	!	!	!	!	!
8C/	.	8d/	.	32c/LLL	.	.	.	8g\	.	8b-\	.	8ee\	.	8gg\	.
.	.	.	.	32d/	.	.	.	.	.	.	.	.	.	.	.
.	.	.	.	32e/	.	.	.	.	.	.	.	.	.	.	.
.	.	.	.	32d/JJJ	.	.	.	.	.	.	.	.	.	.	.
*	*	*	*	*Xrep	*	*	*	*	*	*	*	*	*	*	*
*	*	*	*	*rep	*	*	*	*	*	*	*	*	*	*	*
8C/	.	8en/	.	32c/LLL	.	8c\L	il-	8g\	.	8b-\	.	8ee\	.	8gg\	.
.	.	.	.	32d/	.	.	.	.	.	.	.	.	.	.	.
.	.	.	.	32e/	.	.	.	.	.	.	.	.	.	.	.
.	.	.	.	32d/JJJ	.	.	.	.	.	.	.	.	.	.	.
*	*	*	*	*Xrep	*	*	*	*	*	*	*	*	*	*	*
8C/J	.	8c/J	.	32c/LLL	.	8c\J	-los	8g\J	.	8b-\J	.	8ee\J	.	8gg\J	.
.	.	.	.	32d/	.	.	.	.	.	.	.	.	.	.	.
.	.	.	.	32e/	.	.	.	.	.	.	.	.	.	.	.
.	.	.	.	32f/JJJ	.	.	.	.	.	.	.	.	.	.	.
*Xtremolo	*	*	*	*	*	*	*	*Xtremolo	*	*Xtremolo	*	*	*	*Xtremolo	*
=41	=41	=41	=41	=41	=41	=41	=41	=41	=41	=41	=41	=41	=41	=41	=41
!LO:TX:a:t=P:problem=mixedbeam	!	!	!	!	!	!	!	!LO:N:vis=00	!	!LO:N:vis=00	!	!LO:N:vis=00	!	!LO:N:vis=00	!
8G\L	.	8G/L	.	8g/L	.	8d\L	tu-	0.r	.	0.r	.	0.r	.	0.r	.
8GG/J	.	8g/	.	(32G/LL	.	8Bn\J	-os	.	.	.	.	.	.	.	.
.	.	.	.	32An/	.	.	.	.	.	.	.	.	.	.	.
!	!	!	!	!LO:SIC:v:s=32Bn/	!	!	!	!	!	!	!	!	!	!	!
.	.	.	.	32B-/	.	.	.	.	.	.	.	.	.	.	.
.	.	.	.	32A/JJJ)	.	.	.	.	.	.	.	.	.	.	.
8G\L	.	8bn/	.	16G/LL	.	8G\L	mi-	.	.	.	.	.	.	.	.
.	.	.	.	16G/	.	.	.	.	.	.	.	.	.	.	.
8G\	.	8g/	.	16g/	.	16G\L	-se-	.	.	.	.	.	.	.	.
.	.	.	.	16G/JJ	.	16G\JJ	-ri-	.	.	.	.	.	.	.	.
!	!LO:DY:B:i:t=fr.	!	!	!	!	!LO:LB:g=original	!	!	!	!	!	!	!	!	!
(8A-X\	f	8a-X/	.	16a-X/LL	.	8A-X\L	-cor-	.	.	.	.	.	.	.	.
.	.	.	.	16G/	.	.	.	.	.	.	.	.	.	.	.
8G\J)	.	8g/J	.	16g/	.	8G\J	-des	.	.	.	.	.	.	.	.
.	.	.	.	16G/JJ	.	.	.	.	.	.	.	.	.	.	.
=42	=42	=42	=42	=42	=42	=42	=42	=42	=42	=42	=42	=42	=42	=42	=42
!	!LO:DY:B:i:t=fr	!	!	!	!	!	!	!	!	!	!	!	!	!	!
8GG/L	f	8c/L	.	16cc|/LL	.	8.c\L	O-	.	.	.	.	.	.	.	.
.	.	.	.	(16G/	.	.	.	.	.	.	.	.	.	.	.
(8AA-/	p	8G/	.	16A-X/	.	.	.	.	.	.	.	.	.	.	.
.	.	.	.	16G/JJ)	.	16G\Jk	-cu-	.	.	.	.	.	.	.	.
8GG/)	.	8Bn/	.	16Bn|/LL	.	4G\	-los	.	.	.	.	.	.	.	.
.	.	.	.	(16G/	.	.	.	.	.	.	.	.	.	.	.
!	!LO:DY:B:i:t=fr.	!	!	!	!	!	!	!	!	!	!	!	!	!	!
(8AA-/	f	8G/	.	16A-/	.	.	.	.	.	.	.	.	.	.	.
.	.	.	.	16G/JJ)	.	.	.	.	.	.	.	.	.	.	.
8GG/)	p	8d/	.	16dd|/LL	.	4r	.	.	.	.	.	.	.	.	.
.	.	.	.	(16G/	.	.	.	.	.	.	.	.	.	.	.
!	!LO:DY:B:i:t=fr.	!	!	!	!	!	!	!	!	!	!	!	!	!	!
(8BBn/J	f	8G/J	.	16A-/	.	.	.	.	.	.	.	.	.	.	.
.	.	.	.	16G/JJ)	.	.	.	.	.	.	.	.	.	.	.
=43	=43	=43	=43	=43	=43	=43	=43	=43	=43	=43	=43	=43	=43	=43	=43
!	!	!	!	!	!	!LO:N:vis=0	!	!	!	!	!	!	!	!	!
4C/)	.	4c/	.	8c/L	.	1.r	.	.	.	.	.	.	.	.	.
.	.	.	.	8d/	.	.	.	.	.	.	.	.	.	.	.
4r	.	4r	.	8e-/	.	.	.	.	.	.	.	.	.	.	.
.	.	.	.	8f/	.	.	.	.	.	.	.	.	.	.	.
4r	.	4r	.	8g/	.	.	.	.	.	.	.	.	.	.	.
.	.	.	.	8a-/J	.	.	.	.	.	.	.	.	.	.	.
!	!	!LO:LB:g=original	!	!LO:LB:g=original	!	!	!	!	!	!	!	!	!	!	!
=44	=44	=44	=44	=44	=44	=44	=44	=44	=44	=44	=44	=44	=44	=44	=44
2.r	.	2.r	.	8b-/L	.	.	.	.	.	.	.	.	.	.	.
.	.	.	.	8an/J	.	.	.	.	.	.	.	.	.	.	.
.	.	.	.	8.cc/L	.	.	.	.	.	.	.	.	.	.	.
.	.	.	.	16b-/Jk	.	.	.	.	.	.	.	.	.	.	.
.	.	.	.	8a-X/L	.	.	.	.	.	.	.	.	.	.	.
.	.	.	.	(32f/LL	.	.	.	.	.	.	.	.	.	.	.
.	.	.	.	32cc/	.	.	.	.	.	.	.	.	.	.	.
.	.	.	.	32b-/	.	.	.	.	.	.	.	.	.	.	.
.	.	.	.	32d/JJJ)	.	.	.	.	.	.	.	.	.	.	.
=45	=45	=45	=45	=45	=45	=45	=45	=45	=45	=45	=45	=45	=45	=45	=45
!LO:TX:a:t=P:problem=mixedbeam	!LO:DY:B:i:t=pp&colon;	!	!	!	!	!	!	!	!	!	!	!	!	!	!
8E-\L	pp	8G/L	.	8e-/L	.	4B-\	ad	2.r	.	2.r	.	2.r	.	4b-\	.
8E-\	.	8g/	.	8b-/J	.	.	.	.	.	.	.	.	.	.	.
8E-\	.	8a-/	.	8cc/L	.	8c\L	nos	.	.	.	.	.	.	8cc\L	.
8E-\	.	8g/J	.	8b-/J	.	8B-\J	con-	.	.	.	.	.	.	8b-\J	.
!	!	!	!	!	!	!	!	!	!	!	!	!	!	!LO:TUP:b:problem=klamra łukowa	!
8B-\	.	8d/L	.	8f/L	.	(8A-\L	-ver-	.	.	.	.	.	.	24a-/LL	.
.	.	.	.	.	.	.	.	.	.	.	.	.	.	24f/	.
.	.	.	.	.	.	.	.	.	.	.	.	.	.	24cc/	.
8BB-/J	.	8A-/J	.	8b-/J	.	8F\J)	.	.	.	.	.	.	.	24a-/	.
.	.	.	.	.	.	.	.	.	.	.	.	.	.	24f/	.
.	.	.	.	.	.	.	.	.	.	.	.	.	.	24d/JJ	.
!LO:LB:g=original	!	!	!	!	!	!	!	!	!	!	!	!LO:LB:g=original	!	!	!
=46	=46	=46	=46	=46	=46	=46	=46	=46	=46	=46	=46	=46	=46	=46	=46
8E-\L	.	8e-L 8G/	.	8g/L	.	4E-\	-te	8e-\L	.	8g\L	.	8e-\L	.	8e-\L	.
16G\L	.	8g/J	.	8b-/J	.	.	.	8g\J	.	8b-\J	.	8gg\J	.	8bb-\J	.
16B-\JJ	.	.	.	.	.	.	.	.	.	.	.	.	.	.	.
4e-\	.	4e- 4G/	.	8g/L	.	8r	.	4e-\	.	4g\	.	8ee-\	.	8gg\	.
.	.	.	.	8e-/	.	8E-\	et	.	.	.	.	8r	.	8r	.
4r	.	4r	.	8g/	.	8G\	Je-	4r	.	4r	.	4r	.	4r	.
.	.	.	.	8b-/J	.	8B-\	-sum	.	.	.	.	.	.	.	.
!	!	!	!	!	!	!LO:LB:g=original	!	!	!	!LO:LB:g=original	!	!	!	!LO:LB:g=original	!
=47	=47	=47	=47	=47	=47	=47	=47	=47	=47	=47	=47	=47	=47	=47	=47
*	*	*tremolo	*	*tremolo	*	*	*	*	*	*	*	*	*	*	*
8r	.	16f/LL	.	16aa-\LL	.	4A-\	be-	4r	.	4r	.	8f/L	.	8a-\L	.
.	.	16f/	.	16aa-\	.	.	.	.	.	.	.	.	.	.	.
!LO:TX:a:t=P:problem=mixedbeam	!	!	!	!	!	!	!	!	!	!	!	!	!	!	!
8B-\L	.	16f/	.	16aa-\	.	.	.	.	.	.	.	8a-/J	.	8b-\J	.
.	.	16f/JJ	.	16aa-\JJ	.	.	.	.	.	.	.	.	.	.	.
*	*	*Xtremolo	*	*Xtremolo	*	*	*	*	*	*	*	*tremolo	*	*tremolo	*
!	!	!	!	!	!	!	!	!	!	!	!	!	!	!LO:TX:t=P:problem=2\right w tremolo	!
8BB-/J	.	8d/L	.	8ff\L	.	(8F\L	-ne-	4B-/	.	4b-\	.	8f/L	.	8a-\L	.
8r	.	8a-/	.	(8ccc\	.	8c\J)	.	.	.	.	.	8a-/	.	8b-\	.
4r	.	8g/	.	8bb-\	.	8B-\L	-di-	4B-/	.	4b-\	.	8f/	.	8a-\	.
.	.	8f/J	.	8aa-\J)	.	8A-\J	.	.	.	.	.	8a-/J	.	8b-\J	.
*	*	*	*	*	*	*	*	*	*	*	*	*Xtremolo	*	*Xtremolo	*
=48	=48	=48	=48	=48	=48	=48	=48	=48	=48	=48	=48	=48	=48	=48	=48
4E-\	.	8.B-/L	.	8.gg\L	.	4G\	-ctum	8.g\L	.	8.b-\L	.	8.gg\L	.	8.bb-\L	.
.	.	16A-/Jk	.	16ff\Jk	.	.	.	16f\Jk	.	16a-\Jk	.	16ff\Jk	.	16aa-\Jk	.
4e-\	.	4G/	.	4ee-\	.	4r	.	4e-\	.	4g\	.	4ee-\	.	4gg\	.
4r	.	4r	.	4r	.	8B-\	fru-	4r	.	4r	.	4r	.	4r	.
.	.	.	.	.	.	8B-\	-ctum	.	.	.	.	.	.	.	.
!	!	!	!	!LO:LB:g=original	!	!	!	!	!	!	!	!	!	!	!
=49	=49	=49	=49	=49	=49	=49	=49	=49	=49	=49	=49	=49	=49	=49	=49
!LO:TX:a:t=P:problem=mixedbeam	!	!	!	!	!	!	!	!	!	!	!	!	!	!	!
8BB-/L	.	8r	.	8r	.	2D\	ven-	8r	.	8r	.	8r	.	8r	.
8B-\J	.	8B-/L	.	8d/L	.	.	.	8B-/	.	8f\	.	8aa-\	.	8bb-\	.
4B-\	.	8A-/	.	8b-/	.	.	.	4B-/	.	4f\	.	4aa-\	.	4bb-\	.
.	.	8B-/	.	8d/	.	.	.	.	.	.	.	.	.	.	.
4r	.	8A-/	.	8b-/	.	4B-\	-tris	4r	.	4r	.	4r	.	4r	.
.	.	8B-/J	.	8d/J	.	.	.	.	.	.	.	.	.	.	.
!	!	!LO:LB:g=original	!	!	!	!	!	!LO:LB:g=original	!	!	!	!	!	!	!
=50	=50	=50	=50	=50	=50	=50	=50	=50	=50	=50	=50	=50	=50	=50	=50
8E-\L	.	8r	.	8r	.	2E-\	tu-	8r	.	8r	.	8r	.	8r	.
8e-\J	.	8B-/L	.	8e-/	.	.	.	8e-\	.	8g\	.	8gg\	.	8bb-\	.
*	*	*	*	*tremolo	*	*	*	*	*	*	*	*	*	*	*
4e-\	.	8G/	.	8b-/L	.	.	.	4e-\	.	4g\	.	4gg\	.	4bb-\	.
.	.	8B-/	.	8e-/	.	.	.	.	.	.	.	.	.	.	.
4r	.	8G/	.	8b-/	.	4B-\	-i	4r	.	4r	.	4r	.	4r	.
.	.	8B-/J	.	8e-/J	.	.	.	.	.	.	.	.	.	.	.
*	*	*	*	*Xtremolo	*	*	*	*	*	*	*	*	*	*	*
=51	=51	=51	=51	=51	=51	=51	=51	=51	=51	=51	=51	=51	=51	=51	=51
4BB-/	.	8r	.	8r	.	4D\	no-	8r	.	8r	.	8r	.	8r	.
.	.	8B-/L	.	8d/	.	.	.	8B-/	.	8f\	.	8aa-\	.	8bb-\	.
*	*	*	*	*tremolo	*	*	*	*	*	*	*	*	*	*	*
4B-\	.	8A-/	.	8b-/L	.	8D\	-bis	4B-/	.	4f\	.	4aa-\	.	4bb-\	.
.	.	8B-/	.	8d/	.	8B-\	post	.	.	.	.	.	.	.	.
!	!	!	!	!	!	!LO:LB:g=original	!	!	!	!	!	!	!	!	!
4r	.	8A-/	.	8b-/	.	4B-\	hoc	4r	.	4r	.	4r	.	4r	.
.	.	8B-/J	.	8d/J	.	.	.	.	.	.	.	.	.	.	.
*	*	*	*	*Xtremolo	*	*	*	*	*	*	*	*	*	*	*
!LO:LB:g=original	!	!	!	!	!	!	!	!	!	!	!	!	!	!	!
=52	=52	=52	=52	=52	=52	=52	=52	=52	=52	=52	=52	=52	=52	=52	=52
4E-\	.	4G/	.	4e-/	.	8E-\L	e-	8r	.	8r	.	8r	.	8r	.
.	.	.	.	.	.	16E-\L	-xi-	8G/	.	8e-\	.	8gg\	.	8bb-\	.
.	.	.	.	.	.	16G\JJ	-li-	.	.	.	.	.	.	.	.
4e-\	.	4r	.	8r	.	8B-\	-um	4G/	.	4e-\	.	4gg\	.	4bb-\	.
.	.	.	.	8g/L	.	8G\	O-	.	.	.	.	.	.	.	.
4r	.	4r	.	8f/	.	8F\	-sten-	4r	.	4r	.	4r	.	4r	.
.	.	.	.	8e-/J	.	8E-\	-de	.	.	.	.	.	.	.	.
!	!	!	!	!	!	!	!	!	!	!LO:LB:g=original	!	!LO:LB:g=original	!	!	!
=53	=53	=53	=53	=53	=53	=53	=53	=53	=53	=53	=53	=53	=53	=53	=53
*	*	*^	*	*	*	*	*	*	*	*	*	*	*	*	*
*	*	*	*	*	*	*	*	*	*tremolo	*	*tremolo	*	*tremolo	*	*tremolo	*
!	!	!	!	!	!	!	!LO:TX:t=P:34.]4.:problem=dopisane ołówkiem	!	!	!	!	!	!	!	!	!
!	!LO:DY:rj:B:i:t=fr.	!	!LO:TX:t=P:problem=2.B- na środku taktu	!LO:DY:rj:B:i:t=for	!	!LO:DY:rj:B:i:t=f.	!LO:N:vis=00	!	!	!LO:DY:B:i:t=for	!	!	!	!LO:DY:rj:B:i:t=for	!	!
8D/L	f	8a-/	2.B-/	f	16d/LL	f	0.r	.	8B-/L	f	8f\L	.	8dd\L	f	8ff\L	f
.	.	.	.	.	16a-/	.	.	.	.	.	.	.	.	.	.	.
8BB-/	.	4a-/	.	.	16g/	.	.	.	8B-/	.	8f\	.	8dd\	.	8ff\	.
.	.	.	.	.	16f/JJ	.	.	.	.	.	.	.	.	.	.	.
8F/	.	.	.	.	16e-/LL	.	.	.	8B-/	.	8f\	.	8dd\	.	8ff\	.
.	.	.	.	.	16d/	.	.	.	.	.	.	.	.	.	.	.
8BB-/	.	4a-/	.	.	16c/	.	.	.	8B-/	.	8f\	.	8dd\	.	8ff\	.
.	.	.	.	.	16B-/JJ	.	.	.	.	.	.	.	.	.	.	.
8B-/	.	.	.	.	16An/LL	.	.	.	8B-/	.	8f\	.	8dd\	.	8ff\	.
.	.	.	.	.	16B-/	.	.	.	.	.	.	.	.	.	.	.
8BB-/J	.	8a-/	.	.	16c/	.	.	.	8B-/J	.	8f\J	.	8dd\J	.	8ff\J	.
.	.	.	.	.	16d/JJ	.	.	.	.	.	.	.	.	.	.	.
!	!	!	!	!	!LO:LB:g=original	!	!	!	!	!	!	!	!	!	!LO:LB:g=original	!
=54	=54	=54	=54	=54	=54	=54	=54	=54	=54	=54	=54	=54	=54	=54	=54	=54
!	!	!	!LO:TX:t=P:problem=2.B- na środku taktu	!	!	!	!	!	!	!	!	!	!	!	!	!
8E-/L	.	8g/	2.B-/	.	16e-/LL	.	.	.	8e-\L	.	8g\L	.	8ee-\L	.	8gg\L	.
.	.	.	.	.	16f/	.	.	.	.	.	.	.	.	.	.	.
8BB-/	.	4g/	.	.	16g/	.	.	.	8e-\	.	8g\	.	8ee-\	.	8gg\	.
.	.	.	.	.	16a-/JJ	.	.	.	.	.	.	.	.	.	.	.
8G/	.	.	.	.	16b-\LL	.	.	.	8e-\	.	8g\	.	8ee-\	.	8gg\	.
.	.	.	.	.	16cc\	.	.	.	.	.	.	.	.	.	.	.
8E-/J	.	4g/	.	.	16dd\	.	.	.	8e-\	.	8g\	.	8ee-\	.	8gg\	.
.	.	.	.	.	16ee-\JJ	.	.	.	.	.	.	.	.	.	.	.
8e-\L	.	.	.	.	16b-\LL	.	.	.	8e-\	.	8g\	.	8ee-\	.	8gg\	.
.	.	.	.	.	16gg\	.	.	.	.	.	.	.	.	.	.	.
8E-\J	.	8g/	.	.	16ff\	.	.	.	8e-\J	.	8g\J	.	8ee-\J	.	8gg\J	.
.	.	.	.	.	16ee-\JJ	.	.	.	.	.	.	.	.	.	.	.
=55	=55	=55	=55	=55	=55	=55	=55	=55	=55	=55	=55	=55	=55	=55	=55	=55
!	!	!	!LO:TX:t=P:problem=2.B- na środku taktu	!	!	!	!	!	!	!	!	!	!	!	!	!LO:DY:B:i:t=for
8D/L	.	8f/	2.B-/	.	16dd\LL	.	.	.	8B-/L	.	8f\L	.	8dd\L	.	8ff\L	f
.	.	.	.	.	16ff\	.	.	.	.	.	.	.	.	.	.	.
8BB-/	.	4f/	.	.	16aa-\	.	.	.	8B-/	.	8f\	.	8dd\	.	8ff\	.
.	.	.	.	.	16ccc\JJ	.	.	.	.	.	.	.	.	.	.	.
8F/	.	.	.	.	16bb-\LL	.	.	.	8B-/	.	8f\	.	8dd\	.	8ff\	.
.	.	.	.	.	16aa-\	.	.	.	.	.	.	.	.	.	.	.
8BB-/J	.	4f/	.	.	16gg\	.	.	.	8B-/	.	8f\	.	8dd\	.	8ff\	.
.	.	.	.	.	16ff\JJ	.	.	.	.	.	.	.	.	.	.	.
!LO:TX:a:t=P:problem=mixedbeam	!	!	!	!	!	!	!	!	!	!	!	!	!	!	!	!
8B-\L	.	.	.	.	16ee-\LL	.	.	.	8B-/	.	8f\	.	8dd\	.	8ff\	.
.	.	.	.	.	16dd\	.	.	.	.	.	.	.	.	.	.	.
8BB-/J	.	8f/	.	.	16cc\	.	.	.	8B-/J	.	8f\J	.	8dd\J	.	8ff\J	.
.	.	.	.	.	16b-\JJ	.	.	.	.	.	.	.	.	.	.	.
*	*	*v	*v	*	*	*	*	*	*	*	*	*	*	*	*	*
*	*	*	*	*	*	*	*	*Xtremolo	*	*Xtremolo	*	*	*	*Xtremolo	*
!	!	!LO:LB:g=original	!	!	!	!	!	!	!	!	!	!	!	!	!
=56	=56	=56	=56	=56	=56	=56	=56	=56	=56	=56	=56	=56	=56	=56	=56
4E-\	.	4e- 4G/	.	8ee-\L	.	.	.	4G/	.	4e-\	.	4ee-\	.	4gg\	.
.	.	.	.	8g\	.	.	.	.	.	.	.	.	.	.	.
4r	.	4r	.	8a-\	.	.	.	4r	.	4r	.	4r	.	4r	.
.	.	.	.	8b-\J	.	.	.	.	.	.	.	.	.	.	.
4BB-/	.	8fL 8B-/	.	16bn\LL	.	.	.	8B-/L	.	8f\L	.	8ff\L	.	8aa-\L	.
.	.	.	.	16cc\	.	.	.	.	.	.	.	.	.	.	.
.	.	8dJ 8B-/	.	16a-X\	.	.	.	8f/J	.	8a-\J	.	8dd\J	.	8ff\J	.
.	.	.	.	16f\JJ	.	.	.	.	.	.	.	.	.	.	.
!	!	!	!	!	!	!	!	!LO:LB:g=original	!	!	!	!	!	!	!
=57	=57	=57	=57	=57	=57	=57	=57	=57	=57	=57	=57	=57	=57	=57	=57
!	!	!	!	!	!	!LO:N:vis=00	!	!	!	!	!	!	!	!	!
4B-\	.	4r	.	8d/L	.	0.r	.	4r	.	4r	.	4r	.	4r	.
.	.	.	.	8cc/J	.	.	.	.	.	.	.	.	.	.	.
4BB-/	.	4r	.	16b-/LL	.	.	.	4r	.	4r	.	4r	.	4r	.
.	.	.	.	16an/	.	.	.	.	.	.	.	.	.	.	.
.	.	.	.	16cc/	.	.	.	.	.	.	.	.	.	.	.
.	.	.	.	16b-/JJ	.	.	.	.	.	.	.	.	.	.	.
!	!	!	!	!LO:SIC:v:s=16a-/LL	!	!	!	!	!	!	!	!	!	!	!
4B-\	.	8a-L 8B-/	.	16a/LL	.	.	.	8B-/L	.	8f\L	.	8ff\L	.	8aa-\L	.
.	.	.	.	16f/	.	.	.	.	.	.	.	.	.	.	.
.	.	8a-J 8B-/	.	16b-/	.	.	.	8f/J	.	8a-\J	.	8dd\J	.	8ff\J	.
.	.	.	.	16d/JJ	.	.	.	.	.	.	.	.	.	.	.
!LO:LB:g=original	!	!	!	!LO:LB:g=original	!	!	!	!	!	!	!	!	!	!	!
=58	=58	=58	=58	=58	=58	=58	=58	=58	=58	=58	=58	=58	=58	=58	=58
!	!	!	!	!	!LO:DY:rj:B:i:t=p.	!	!	!	!	!	!	!LO:N:vis=00	!	!LO:TX:a:t=Solo	!
8E-\L	pp	8gL 8B-/	.	8e-/L	p	.	.	8e-\L	.	8g\L	.	0.r	.	8ee-\L	.
!	!	!	!LO:DY:B:i:t=po	!	!	!	!	!	!	!	!	!	!	!	!
8E-\J	.	8g/J	p	8b-/J	.	.	.	8g\	.	8b-\	.	.	.	8.bb-\J	.
*tremolo	*	*tremolo	*	*tremolo	*	*	*	*	*	*	*	*	*	*	*
8E-\L	.	8e-/L	.	8g/L	.	.	.	8e-\J	.	8g\J	.	.	.	.	.
.	.	.	.	.	.	.	.	.	.	.	.	.	.	16gg\LL	.
8E-\	.	8g/	.	8b-/	.	.	.	8r	.	8r	.	.	.	16bb-\	.
.	.	.	.	.	.	.	.	.	.	.	.	.	.	16ee-\JJ	.
8E-\	.	8e-/	.	8g/	.	.	.	4r	.	4r	.	.	.	16gg\LL	.
.	.	.	.	.	.	.	.	.	.	.	.	.	.	16b-\	.
8E-\J	.	8g/J	.	8b-/J	.	.	.	.	.	.	.	.	.	16ee-\	.
.	.	.	.	.	.	.	.	.	.	.	.	.	.	16g\JJ	.
*Xtremolo	*	*	*	*	*	*	*	*	*	*	*	*	*	*	*
=59	=59	=59	=59	=59	=59	=59	=59	=59	=59	=59	=59	=59	=59	=59	=59
8F\L	.	8f/L	.	8a-/L	.	.	.	8B-/L	.	8f\L	.	.	.	8a-\L	.
8F\J	.	8a-/	.	8b-/	.	.	.	8f/	.	8a-\	.	.	.	8.aa-\J	.
8BB-/L	.	8f/	.	8a-/	.	.	.	8B-/J	.	8f\J	.	.	.	.	.
.	.	.	.	.	.	.	.	.	.	.	.	.	.	16ff\LL	.
8BB-/	.	8a-/	.	8b-/	.	.	.	8r	.	8r	.	.	.	16aa-\	.
.	.	.	.	.	.	.	.	.	.	.	.	.	.	16dd\JJ	.
8BB-/	.	8f/	.	8a-/	.	.	.	4r	.	4r	.	.	.	16ff\LL	.
.	.	.	.	.	.	.	.	.	.	.	.	.	.	16a-\	.
8BB-/J	.	8a-/J	.	8b-/J	.	.	.	.	.	.	.	.	.	16dd\	.
.	.	.	.	.	.	.	.	.	.	.	.	.	.	16f\JJ	.
!	!	!	!	!	!	!	!	!	!	!LO:LB:g=original	!	!	!	!LO:LB:g=original	!
=60	=60	=60	=60	=60	=60	=60	=60	=60	=60	=60	=60	=60	=60	=60	=60
*tremolo	*	*	*	*	*	*	*	*	*	*	*	*	*	*	*
8E-\L	.	8e-/L	.	8g/L	.	.	.	8r	.	8r	.	.	.	16e-\LL	.
.	.	.	.	.	.	.	.	.	.	.	.	.	.	16g\	.
8E-\	.	8g/	.	8b-/	.	.	.	8G/	.	8e-\	.	.	.	16b-\	.
.	.	.	.	.	.	.	.	.	.	.	.	.	.	16ee-\JJ	.
8E-\	.	8e-/	.	8g/	.	.	.	8r	.	8r	.	.	.	16gg\LL	.
.	.	.	.	.	.	.	.	.	.	.	.	.	.	16bb-\	.
8E-\	.	8g/	.	8b-/	.	.	.	8G/	.	8e-\	.	.	.	16aa-\	.
.	.	.	.	.	.	.	.	.	.	.	.	.	.	16gg\JJ	.
8E-\	.	8e-/	.	8g/	.	.	.	8r	.	8r	.	.	.	16ff\LL	.
.	.	.	.	.	.	.	.	.	.	.	.	.	.	16ee-\	.
!	!	!	!	!	!	!	!	!LO:TX:t=P:problem=8r poprawiona na kreskę taktową	!	!	!	!	!	!	!
8E-\J	.	8g/J	.	8b-/J	.	.	.	8G/	.	8e-\	.	.	.	16dd\	.
.	.	.	.	.	.	.	.	.	.	.	.	.	.	16ee-\JJ	.
*Xtremolo	*	*	*	*	*	*	*	*	*	*	*	*	*	*	*
=61	=61	=61	=61	=61	=61	=61	=61	=61	=61	=61	=61	=61	=61	=61	=61
!	!	!	!	!	!	!LO:N:vis=0	!	!	!	!	!	!	!	!	!
4BB-/	.	8f/L	.	8a-/L	.	1.r	.	8r	.	8r	.	.	.	8cc\L	.
.	.	8a-/	.	8b-/	.	.	.	8B-/	.	8f\	.	.	.	8.ccc\J	.
*tremolo	*	*	*	*	*	*	*	*	*	*	*	*	*	*	*
8B-\L	.	8f/	.	8a-/	.	.	.	8r	.	8r	.	.	.	.	.
.	.	.	.	.	.	.	.	.	.	.	.	.	.	16bb-\LL	.
8B-\	.	8a-/	.	8b-/	.	.	.	8B-/	.	8f\	.	.	.	16aa-\	.
.	.	.	.	.	.	.	.	.	.	.	.	.	.	16gg\JJ	.
8B-\	.	8f/	.	8a-/	.	.	.	8r	.	8r	.	.	.	16ff\LL	.
.	.	.	.	.	.	.	.	.	.	.	.	.	.	16bb-\	.
8B-\J	.	8a-/J	.	8b-/J	.	.	.	8B-/	.	8f\	.	.	.	16dd\	.
.	.	.	.	.	.	.	.	.	.	.	.	.	.	16ff\JJ	.
!	!	!	!	!	!	!	!	!LO:LB:g=original	!	!	!	!	!	!	!
=62	=62	=62	=62	=62	=62	=62	=62	=62	=62	=62	=62	=62	=62	=62	=62
!	!	!	!	!	!	!	!	!	!	!	!	!LO:N:vis=0	!	!	!
8E-\L	.	8e-/L	.	8g/L	.	.	.	8r	.	8r	.	1.r	.	16ee-\LL	.
.	.	.	.	.	.	.	.	.	.	.	.	.	.	16ff\	.
8E-\	.	8g/	.	8b-/	.	.	.	8G/	.	8e-\	.	.	.	16gg\	.
.	.	.	.	.	.	.	.	.	.	.	.	.	.	16aa-\JJ	.
8E-\	.	8e-/	.	8g/	.	.	.	8r	.	8r	.	.	.	16bb-\LL	.
.	.	.	.	.	.	.	.	.	.	.	.	.	.	16aa\	.
8E-\J	.	8g/J	.	8b-/J	.	.	.	8G/	.	8e-\	.	.	.	16ccc\	.
.	.	.	.	.	.	.	.	.	.	.	.	.	.	16bb-\JJ	.
*Xtremolo	*	*Xtremolo	*	*Xtremolo	*	*	*	*	*	*	*	*	*	*	*
!LO:TX:a:t=P:problem=mixedbeam	!	!	!	!	!	!	!	!	!	!	!	!	!	!	!
8BB-/L	.	8d/L	.	8f/L	.	.	.	8r	.	8r	.	.	.	16aa-X\LL	.
.	.	.	.	.	.	.	.	.	.	.	.	.	.	16ff\	.
!	!	!	!	!LO:TX:a:t=Verte Citiſsime	!	!	!	!	!	!	!	!	!	!	!
8B-\J	.	8a-/J	.	8b-/J	.	.	.	8B-/	.	8f\	.	.	.	16bb-\	.
.	.	.	.	.	.	.	.	.	.	.	.	.	.	16dd\JJ	.
!	!	!LO:LB:g=original	!	!LO:PB:g=original	!	!	!	!	!	!	!	!	!	!	!
=63	=63	=63	=63	=63	=63	=63	=63	=63	=63	=63	=63	=63	=63	=63	=63
!	!	!	!	!	!	!	!	!	!	!	!	!	!	!LO:N:vis=0	!
4E-\	.	8.e-/L	.	8.e-L 8.G/	.	4E-\	O	4E-/	.	4e-\	.	.	.	1.r	.
.	.	16e-/Jk	.	16e-Jk 16G/	.	.	.	.	.	.	.	.	.	.	.
4G\	.	8.g/L	.	8.g/L	.	4G\	cle-	4G/	.	4g\	.	.	.	.	.
.	.	16g/Jk	.	16g/Jk	.	.	.	.	.	.	.	.	.	.	.
4B-\	.	8.b-/L	.	8.b-\L	.	8.B-\L	-mens	4B-/	.	4b-\	.	.	.	.	.
.	.	16b-/Jk	.	16b-\Jk	.	16d\Jk	o	.	.	.	.	.	.	.	.
=64	=64	=64	=64	=64	=64	=64	=64	=64	=64	=64	=64	=64	=64	=64	=64
!	!	!	!	!	!LO:DY:B:i:t=f.	!	!	!	!	!	!	!	!	!	!
4e-\	.	4e- 4G/	.	4ee-\	f	4e-\	pi-	4e-\	.	4ee-\	.	2.r	.	.	.
!	!	!	!	!LO:TX:a:t=P:problem=mixedbeam	!	!	!	!	!	!	!	!	!	!	!
4E-\	.	4r	.	16e-/LL	.	4E-\	-a	4E-/	.	4e-\	.	.	.	.	.
.	.	.	.	16ee-\	.	.	.	.	.	.	.	.	.	.	.
.	.	.	.	16ff\	.	.	.	.	.	.	.	.	.	.	.
.	.	.	.	16gg\JJ	.	.	.	.	.	.	.	.	.	.	.
4r	.	4r	.	16aa-\LL	.	4r	.	4r	.	4r	.	.	.	.	.
.	.	.	.	16gg\	.	.	.	.	.	.	.	.	.	.	.
.	.	.	.	16aa-\	.	.	.	.	.	.	.	.	.	.	.
.	.	.	.	16bb-\JJ	.	.	.	.	.	.	.	.	.	.	.
!LO:LB:g=original	!	!	!	!	!	!	!	!	!	!LO:LB:g=original	!	!	!	!	!
=65	=65	=65	=65	=65	=65	=65	=65	=65	=65	=65	=65	=65	=65	=65	=65
*tremolo	*	*	*	*	*	*	*	*	*	*	*	*	*	*	*
!	!	!	!	!	!LO:DY:B:i:t=po	!	!	!	!	!	!	!	!	!	!
8E-\L	.	4a-/	.	(8ccc\L	p	4c\	o	2.r	.	2.r	.	4a-/	.	4cc\	.
8E-\	.	.	.	8aa-\)	.	.	.	.	.	.	.	.	.	.	.
8E-\	.	4g/	.	(8bb-\	.	4B-\	dul-	.	.	.	.	4g/	.	4b-\	.
8E-\	.	.	.	8gg\)	.	.	.	.	.	.	.	.	.	.	.
8E-\	.	4f/	.	(8aa-\	.	4A-\	-cis	.	.	.	.	4f/	.	4a-\	.
8E-\J	.	.	.	8ff\J)	.	.	.	.	.	.	.	.	.	.	.
*Xtremolo	*	*	*	*	*	*	*	*	*	*	*	*	*	*	*
!	!	!	!	!	!	!LO:LB:g=original	!	!	!	!	!	!	!	!LO:LB:g=original	!
=66	=66	=66	=66	=66	=66	=66	=66	=66	=66	=66	=66	=66	=66	=66	=66
!!LO:TX:t=P:problem:niezgodność pionów w takcie
4E-\	.	8.e-/L	.	8.gg\L	.	4G\	Vir-	4G/	.	4e-\	.	4e-/	.	4g\	.
.	.	16f/Jk	.	16aa-\Jk	.	.	.	.	.	.	.	.	.	.	.
4B-\	.	8g/L	.	8bb-\L	.	8B-\L	-go	8e-\L	.	8g\L	.	8g/L	.	8b-\L	.
.	.	8e-/	.	8gg\	.	8G\J	Ma-	8f\J	.	8a-\J	.	8e-/	.	8g\	.
!	!	!	!	!	!	!	!	!	!	!LO:TX:a:t=P:problem=mixedbeam	!	!	!	!	!
4BB-/	.	8f/	.	8aa-\	.	(8A-\L	-ri-	8B-/L	.	8b-\L	.	8f/	.	8a-\	.
.	.	8a-/J	.	8ff\J	.	8F\J)	.	8BB-/J	.	8B-/J	.	8A-/J	.	8f\J	.
!	!	!	!	!LO:LB:g=original	!	!	!	!	!	!	!	!LO:LB:g=original	!	!	!
=67	=67	=67	=67	=67	=67	=67	=67	=67	=67	=67	=67	=67	=67	=67	=67
!	!LO:DY:rj:B:i:t=fr.	!	!	!	!LO:DY:rj:B:i:t=for	!	!	!	!LO:DY:rj:B:i:t=fr	!	!LO:DY:B:i:t=fr.	!	!	!	!
8E-\L	f	32ee-/LLL	.	32ee-/LLL	f	4E-\	-a	4E-/	f	4e-\	f	4G/	.	4e-/	.
.	.	32dd/	.	32dd/	.	.	.	.	.	.	.	.	.	.	.
.	.	32cc/	.	32cc/	.	.	.	.	.	.	.	.	.	.	.
.	.	32b-/	.	32b-/	.	.	.	.	.	.	.	.	.	.	.
8G\	.	32a-/	.	32a-/	.	.	.	.	.	.	.	.	.	.	.
.	.	32g/	.	32g/	.	.	.	.	.	.	.	.	.	.	.
.	.	32f/	.	32f/	.	.	.	.	.	.	.	.	.	.	.
.	.	32e-/JJJ	.	32e-/JJJ	.	.	.	.	.	.	.	.	.	.	.
*	*	*rep	*	*rep	*	*	*	*	*	*	*	*	*	*	*
!	!	!	!	!	!	!	!	!	!	!	!	!	!LO:DY:B:i:t=for	!	!
8B-\	.	32ee-/LLL	.	32ee-/LLL	.	4r	.	4e-\	.	4g\	.	4ee-\	f	4gg\	.
.	.	32dd/	.	32dd/	.	.	.	.	.	.	.	.	.	.	.
.	.	32cc/	.	32cc/	.	.	.	.	.	.	.	.	.	.	.
.	.	32b-/	.	32b-/	.	.	.	.	.	.	.	.	.	.	.
8e-\	.	32a-/	.	32a-/	.	.	.	.	.	.	.	.	.	.	.
.	.	32g/	.	32g/	.	.	.	.	.	.	.	.	.	.	.
.	.	32f/	.	32f/	.	.	.	.	.	.	.	.	.	.	.
.	.	32e-/JJJ	.	32e-/JJJ	.	.	.	.	.	.	.	.	.	.	.
*	*	*Xrep	*	*Xrep	*	*	*	*	*	*	*	*	*	*	*
*	*	*rep	*	*rep	*	*	*	*	*	*	*	*	*	*	*
8E-\	.	32ee-/LLL	.	32ee-/LLL	.	4r	.	4g\	.	4b-\	.	4gg\	.	4bb-\	.
.	.	32dd/	.	32dd/	.	.	.	.	.	.	.	.	.	.	.
.	.	32cc/	.	32cc/	.	.	.	.	.	.	.	.	.	.	.
.	.	32b-/	.	32b-/	.	.	.	.	.	.	.	.	.	.	.
8e-\J	.	32a-/	.	32a-/	.	.	.	.	.	.	.	.	.	.	.
.	.	32g/	.	32g/	.	.	.	.	.	.	.	.	.	.	.
.	.	32f/	.	32f/	.	.	.	.	.	.	.	.	.	.	.
.	.	32e-/JJJ	.	32e-/JJJ	.	.	.	.	.	.	.	.	.	.	.
*	*	*Xrep	*	*Xrep	*	*	*	*	*	*	*	*	*	*	*
!	!	!LO:LB:g=original	!	!	!	!	!	!	!	!	!	!	!	!	!
=68	=68	=68	=68	=68	=68	=68	=68	=68	=68	=68	=68	=68	=68	=68	=68
*	*	*	*	*	*	*	*	*tremolo	*	*tremolo	*	*	*	*	*
!	!LO:DY:B:i:t=po	!	!	!	!	!	!	!	!LO:DY:rj:B:i:t=po	!	!LO:DY:B:i:t=po	!	!	!	!
4E-\	p	16r	.	16r	.	4e-\	O	8E-/L	p	8e-\L	p	4cc\	.	4ee-\	.
.	.	16g/LL	.	16gg\LL	.	.	.	.	.	.	.	.	.	.	.
.	.	16f/	.	16ff\	.	.	.	8E-/	.	8e-\	.	.	.	.	.
.	.	16e-/JJ	.	16ee-\JJ	.	.	.	.	.	.	.	.	.	.	.
4E-\	.	16r	.	16r	.	4d\	cle-	8E-/	.	8e-\	.	4b-\	.	4dd\	.
.	.	16f/LL	.	16ff\LL	.	.	.	.	.	.	.	.	.	.	.
.	.	16e-/	.	16ee-\	.	.	.	8E-/	.	8e-\	.	.	.	.	.
.	.	16d/JJ	.	16dd\JJ	.	.	.	.	.	.	.	.	.	.	.
4E-\	.	16r	.	16r	.	4c\	-mens	8E-/	.	8e-\	.	4a-\	.	4cc\	.
.	.	16e-/LL	.	16ee-\LL	.	.	.	.	.	.	.	.	.	.	.
.	.	16d/	.	16dd\	.	.	.	8E-/J	.	8e-\J	.	.	.	.	.
.	.	16c/JJ	.	16cc\JJ	.	.	.	.	.	.	.	.	.	.	.
!	!	!	!	!	!	!	!	!LO:LB:g=original	!	!	!	!	!	!	!
=69	=69	=69	=69	=69	=69	=69	=69	=69	=69	=69	=69	=69	=69	=69	=69
4E-\	.	16r	.	16r	.	4B-\	o	8E-/L	.	8e-\L	.	4g/	.	4b-\	.
.	.	16d/LL	.	16dd\LL	.	.	.	.	.	.	.	.	.	.	.
.	.	16c/	.	16cc\	.	.	.	8E-/	.	8e-\	.	.	.	.	.
.	.	16B-/JJ	.	16b-\JJ	.	.	.	.	.	.	.	.	.	.	.
4E-\	.	16r	.	16r	.	4A-\	pi-	8E-/	.	8e-\	.	4f/	.	4a-\	.
.	.	16c/LL	.	16cc\LL	.	.	.	.	.	.	.	.	.	.	.
.	.	16B-/	.	16b-\	.	.	.	8E-/	.	8e-\	.	.	.	.	.
.	.	16A-/JJ	.	16a-\JJ	.	.	.	.	.	.	.	.	.	.	.
4E-\	.	16r	.	16r	.	4G\	-a	8E-/	.	8e-\	.	4e-/	.	4g\	.
.	.	16B-/LL	.	16b-/LL	.	.	.	.	.	.	.	.	.	.	.
.	.	16A-/	.	16a-/	.	.	.	8E-/J	.	8e-\J	.	.	.	.	.
.	.	16G/JJ	.	16g/JJ	.	.	.	.	.	.	.	.	.	.	.
!	!	!	!	!LO:LB:g=original	!	!	!	!	!	!	!	!	!	!	!
=70	=70	=70	=70	=70	=70	=70	=70	=70	=70	=70	=70	=70	=70	=70	=70
4E-\	.	16r	.	16r	.	4c\	O	8E-/L	.	8e-\L	.	4a-/	.	4cc\	.
.	.	16e-/LL	.	16ee-\LL	.	.	.	.	.	.	.	.	.	.	.
.	.	16d/	.	16dd\	.	.	.	8E-/	.	8e-\	.	.	.	.	.
.	.	16c/JJ	.	16cc\JJ	.	.	.	.	.	.	.	.	.	.	.
4E-\	.	16r	.	16r	.	4B-\	dul-	8E-/	.	8e-\	.	4g/	.	4b-\	.
.	.	16d/LL	.	16dd\LL	.	.	.	.	.	.	.	.	.	.	.
.	.	16c/	.	16cc\	.	.	.	8E-/	.	8e-\	.	.	.	.	.
.	.	16B-/JJ	.	16b-\JJ	.	.	.	.	.	.	.	.	.	.	.
4E-\	.	16r	.	16r	.	4A-\	-cis	8E-/	.	8e-\	.	4f/	.	4a-\	.
.	.	16c/LL	.	16cc\LL	.	.	.	.	.	.	.	.	.	.	.
.	.	16B-/	.	16b-\	.	.	.	8E-/J	.	8e-\J	.	.	.	.	.
.	.	16A-/JJ	.	16a-\JJ	.	.	.	.	.	.	.	.	.	.	.
!	!	!	!	!	!	!LO:LB:g=original	!	!	!	!	!	!	!	!	!
=71	=71	=71	=71	=71	=71	=71	=71	=71	=71	=71	=71	=71	=71	=71	=71
4E-\	.	16r	.	16r	.	(4G\	Vir-	8E-/L	.	8e-\L	.	4e-/	.	4g/	.
.	.	16B-/LL	.	16b-/LL	.	.	.	.	.	.	.	.	.	.	.
.	.	16A-/	.	16a-/	.	.	.	8E-/	.	8e-\	.	.	.	.	.
.	.	16G/JJ	.	16g/JJ	.	.	.	.	.	.	.	.	.	.	.
4E-\	.	4A-/	.	16r	.	4F\)	.	8E-/	.	8e-\	.	4A-/	.	4f/	.
.	.	.	.	16a-/LL	.	.	.	.	.	.	.	.	.	.	.
.	.	.	.	16g/	.	.	.	8E-/	.	8e-\	.	.	.	.	.
.	.	.	.	16f/JJ	.	.	.	.	.	.	.	.	.	.	.
4E-\	.	4G/	.	16r	.	4E-\	-go	8E-/	.	8e-\	.	4G/	.	4e-/	.
.	.	.	.	16g/LL	.	.	.	.	.	.	.	.	.	.	.
.	.	.	.	16f/	.	.	.	8E-/J	.	8e-\J	.	.	.	.	.
.	.	.	.	16e-/JJ	.	.	.	.	.	.	.	.	.	.	.
*	*	*	*	*	*	*	*	*	*	*Xtremolo	*	*	*	*	*
!LO:LB:g=original	!	!LO:LB:g=original	!	!	!	!	!	!	!	!	!	!	!	!	!
=72	=72	=72	=72	=72	=72	=72	=72	=72	=72	=72	=72	=72	=72	=72	=72
4AA-/	.	4f 4A-/	.	16a-/LL	.	(8A-\L	Ma-	2.r	.	2.r	.	4c/	.	4a-/	.
.	.	.	.	16g/	.	.	.	.	.	.	.	.	.	.	.
.	.	.	.	16a-/	.	8c\J)	.	.	.	.	.	.	.	.	.
.	.	.	.	16cc/JJ	.	.	.	.	.	.	.	.	.	.	.
4BB-/	.	4g 4B-/	.	16b-/LL	.	4B-\	-ri-	.	.	.	.	4e-/	.	4g/	.
.	.	.	.	16an/	.	.	.	.	.	.	.	.	.	.	.
.	.	.	.	16cc/	.	.	.	.	.	.	.	.	.	.	.
.	.	.	.	16b-/JJ	.	.	.	.	.	.	.	.	.	.	.
4B-\	.	4f 4B-/	.	16a/LL	.	4BB-/	.	.	.	.	.	4d/	.	4f/	.
.	.	.	.	16b-/	.	.	.	.	.	.	.	.	.	.	.
.	.	.	.	16a-X/	.	.	.	.	.	.	.	.	.	.	.
.	.	.	.	16f/JJ	.	.	.	.	.	.	.	.	.	.	.
!	!	!	!	!	!	!	!	!	!	!	!	!	!	!LO:LB:g=original	!
=73	=73	=73	=73	=73	=73	=73	=73	=73	=73	=73	=73	=73	=73	=73	=73
!	!LO:HP:t=cres	!LO:TX:a:t=P:problem=mixedbeam	!	!LO:TX:a:t=P:problem=mixedbeam	!	!	!	!	!	!	!	!LO:N:vis=00	!	!	!
8E-\L	<	8e-/L	.	8e-/L	.	8E-\L	-a	4E-/	.	4e-\	.	0.r	.	16r	.
.	.	.	.	.	.	.	.	.	.	.	.	.	.	16gg\LL	.
8E-\	.	8cc\J	.	8eee-\J	.	8e-\J	O	.	.	.	.	.	.	16ff\	.
.	.	.	.	.	.	.	.	.	.	.	.	.	.	16ee-\JJ	.
8E-\	.	4b-\	.	4ddd\	.	4d\	cle-	4r	.	4r	.	.	.	16r	.
.	.	.	.	.	.	.	.	.	.	.	.	.	.	16ff\LL	.
8E-\	.	.	.	.	.	.	.	.	.	.	.	.	.	16ee-\	.
.	.	.	.	.	.	.	.	.	.	.	.	.	.	16dd\JJ	.
8E-\	.	4a-\	.	4ccc\	.	4c\	-mens	4E-/	.	4e-\	.	.	.	16r	.
.	.	.	.	.	.	.	.	.	.	.	.	.	.	16ee-\LL	.
8E-\J	.	.	.	.	.	.	.	.	.	.	.	.	.	16dd\	.
.	.	.	.	.	.	.	.	.	.	.	.	.	.	16cc\JJ	.
!	!	!	!	!LO:LB:g=original	!	!	!	!	!	!LO:LB:g=original	!	!	!	!	!
=74	=74	=74	=74	=74	=74	=74	=74	=74	=74	=74	=74	=74	=74	=74	=74
8E-\L	.	4g/	.	4bb-\	.	4B-\	O	4r	.	4r	.	.	.	16r	.
.	.	.	.	.	.	.	.	.	.	.	.	.	.	16dd\LL	.
8E-\	.	.	.	.	.	.	.	.	.	.	.	.	.	16cc\	.
.	.	.	.	.	.	.	.	.	.	.	.	.	.	16b-\JJ	.
8E-\	.	4f/	.	4aa-\	.	4A-\	pi-	4E-/	.	4e-\	.	.	.	16r	.
.	.	.	.	.	.	.	.	.	.	.	.	.	.	16cc\LL	.
8E-\	.	.	.	.	.	.	.	.	.	.	.	.	.	16b-\	.
.	.	.	.	.	.	.	.	.	.	.	.	.	.	16a-\JJ	.
8E-\	.	4e-/	.	4gg\	.	4G\	-a	4r	.	4r	.	.	.	16r	.
.	.	.	.	.	.	.	.	.	.	.	.	.	.	16b-\LL	.
8E-\J	.	.	.	.	.	.	.	.	.	.	.	.	.	16a-\	.
.	.	.	.	.	.	.	.	.	.	.	.	.	.	16g\JJ	.
=75	=75	=75	=75	=75	=75	=75	=75	=75	=75	=75	=75	=75	=75	=75	=75
8E-\L	.	4a-/	.	4ccc\	.	4c\	O	4E-/	.	4e-\	.	.	.	16r	.
.	.	.	.	.	.	.	.	.	.	.	.	.	.	16ee-\LL	.
8E-\	.	.	.	.	.	.	.	.	.	.	.	.	.	16dd\	.
.	.	.	.	.	.	.	.	.	.	.	.	.	.	16cc\JJ	.
8E-\	.	4g/	.	4bb-\	.	4B-\	dul-	4r	.	4r	.	.	.	16r	.
.	.	.	.	.	.	.	.	.	.	.	.	.	.	16dd\LL	.
8E-\	.	.	.	.	.	.	.	.	.	.	.	.	.	16cc\	.
.	.	.	.	.	.	.	.	.	.	.	.	.	.	16b-\JJ	.
8E-\	.	4f/	.	4aa-\	.	4A-\	-cis	4E-/	.	4e-\	.	.	.	16r	.
.	.	.	.	.	.	.	.	.	.	.	.	.	.	16cc\LL	.
8E-\J	.	.	.	.	.	.	.	.	.	.	.	.	.	16b-\	.
.	.	.	.	.	.	.	.	.	.	.	.	.	.	16a-\JJ	.
!	!	!	!	!	!	!LO:LB:g=original	!	!	!	!	!	!	!	!LO:LB:g=original	!
=76	=76	=76	=76	=76	=76	=76	=76	=76	=76	=76	=76	=76	=76	=76	=76
*tremolo	*	*	*	*	*	*	*	*	*	*	*	*	*	*	*
8E-\L	.	4e-/	.	4gg\	.	4G\	Vir-	4r	.	4r	.	.	.	16r	.
.	.	.	.	.	.	.	.	.	.	.	.	.	.	16b-/LL	.
8E-\	.	.	.	.	.	.	.	.	.	.	.	.	.	16a-/	.
.	.	.	.	.	.	.	.	.	.	.	.	.	.	16g/JJ	.
8E-\	.	4A-/	.	4ff\	.	4F\	.	4E-/	.	4e-\	.	.	.	16r	.
.	.	.	.	.	.	.	.	.	.	.	.	.	.	16a-/LL	.
8E-\	.	.	.	.	.	.	.	.	.	.	.	.	.	16g/	.
.	.	.	.	.	.	.	.	.	.	.	.	.	.	16f/JJ	.
8E-\	.	4G/	.	4ee-\	.	4E-\	-go	4r	.	4r	.	.	.	16r	.
.	.	.	.	.	.	.	.	.	.	.	.	.	.	16g/LL	.
8E-\J	.	.	.	.	.	.	.	.	.	.	.	.	.	16f/	.
.	.	.	.	.	.	.	.	.	.	.	.	.	.	16e-/JJ	.
*Xtremolo	*	*	*	*	*	*	*	*	*	*	*	*	*	*	*
!LO:PB:g=original	!	!	!	!	!	!	!	!	!	!	!	!	!	!	!
=77	=77	=77	=77	=77	=77	=77	=77	=77	=77	=77	=77	=77	=77	=77	=77
4A-\	.	4c/	.	4aa-\	.	4A-\	Vir-	4r	.	4r	.	2.r	.	16a-/LL	.
.	.	.	.	.	.	.	.	.	.	.	.	.	.	16g/	.
.	.	.	.	.	.	.	.	.	.	.	.	.	.	16f/	.
.	.	.	.	.	.	.	.	.	.	.	.	.	.	16a-/JJ	.
!	!	!	!	!	!	!	!	!	!	!	!	!	!	!LO:TX:a:t=P:problem=mixedbeam	!
4B-\	.	4A-/	.	4ff\	.	8F\L	-go	4B-/	.	4b-\	.	.	.	8f/L	.
.	.	.	.	.	.	8c\J	.	.	.	.	.	.	.	8ccc\J	.
4BB-/	.	8a-L 8B-/	.	8bb-\L	.	8B-\L	Ma-	4BB-/	.	4B-/	.	.	.	16bb-\LL	.
.	.	.	.	.	.	.	.	.	.	.	.	.	.	16gg\	.
.	.	8fJ 8B-/	.	8dd\J	.	8D\J	-ri-	.	.	.	.	.	.	16aa-\	.
.	.	.	.	.	.	.	.	.	.	.	.	.	.	16dd\JJ	.
!	!	!	!	!	!	!	!	!LO:LB:g=original	!	!	!	!	!	!	!
=78	=78	=78	=78	=78	=78	=78	=78	=78	=78	=78	=78	=78	=78	=78	=78
*	*	*^	*	*	*	*	*	*	*	*	*	*	*	*	*
!	!	!	!LO:TX:t=P:problem=2.G na środku taktu	!	!LO:TX:a:t=P:problem=mixedbeam	!	!	!	!	!	!	!	!	!	!	!
4E-\	>	4e-/	2.G/	.	8ee-\L	.	4E-\	-a	4G/	.	4e-\	.	4r	.	4ee-\	.
.	.	.	.	.	8e-/	.	.	.	.	.	.	.	.	.	.	.
4r	.	4e-/	.	.	8d/	.	4r	.	4G/	.	4e-\	.	4d/	.	4g/	.
.	.	.	.	.	8e-/	.	.	.	.	.	.	.	.	.	.	.
4E-\	.	4e-/	.	.	8d/	.	4r	.	4G/	.	4e-\	.	4g/	.	4b-/	.
.	.	.	.	.	8e-/J	.	.	.	.	.	.	.	.	.	.	.
*	*	*v	*v	*	*	*	*	*	*	*	*	*	*	*	*	*
!	!	!	!	!	!	!	!	!	!	!	!	!LO:LB:g=original	!	!	!
=79	=79	=79	=79	=79	=79	=79	=79	=79	=79	=79	=79	=79	=79	=79	=79
*	*	*tremolo	*	*	*	*	*	*	*	*	*	*	*	*	*
!	!	!	!	!	!	!LO:N:vis=00	!	!	!	!	!	!	!	!LO:TX:t=P:problem=nad nutą znak dopisany ołówkiem	!
4BB-/	.	8d/L	.	8f/L	.	0.r	.	4B-/	.	4f\	.	4f/	.	4a-/	.
.	.	8B-/	.	8g/	.	.	.	.	.	.	.	.	.	.	.
4r	.	8d/	.	8a-/	.	.	.	4B-/	.	4f\	.	4f/	.	4a-/	.
.	.	8B-/	.	8cc/	.	.	.	.	.	.	.	.	.	.	.
4B-\	.	8d/	.	8b-/	.	.	.	4B-/	.	4f\	.	4f/	.	4a-/	.
.	.	8B-/J	.	8d/J	.	.	.	.	.	.	.	.	.	.	.
*	*	*Xtremolo	*	*	*	*	*	*	*	*	*	*	*	*	*
!	!	!LO:LB:g=original	!	!	!	!	!	!	!	!	!	!	!	!	!
=80	=80	=80	=80	=80	=80	=80	=80	=80	=80	=80	=80	=80	=80	=80	=80
*	*	*^	*	*	*	*	*	*	*	*	*	*	*	*	*
!	!	!	!LO:TX:t=P:problem=2.G na środku taktu	!	!	!	!	!	!	!	!	!	!	!	!	!
4E-\	.	4e-/	2.G/	>	8e-/L	>	.	.	4G/	>	4e-\	>	4e-/	>	4g/	>
.	.	.	.	.	8e-/	.	.	.	.	.	.	.	.	.	.	.
4r	.	4e-/	.	.	8d/	.	.	.	4G/	.	4e-\	.	4e-/	.	4g/	.
.	.	.	.	.	8e-/	.	.	.	.	.	.	.	.	.	.	.
4E-\	.	4e-/	.	.	8d/	.	.	.	4G/	.	4e-\	.	4g/	.	4b-/	.
.	.	.	.	.	8e-/J	.	.	.	.	.	.	.	.	.	.	.
*	*	*v	*v	*	*	*	*	*	*	*	*	*	*	*	*	*
!	!	!	!	!LO:LB:g=original	!	!	!	!	!	!LO:LB:g=original	!	!	!	!LO:LB:g=original	!
=81	=81	=81	=81	=81	=81	=81	=81	=81	=81	=81	=81	=81	=81	=81	=81
*	*	*tremolo	*	*	*	*	*	*	*	*	*	*	*	*	*
4BB-/	.	8d/L	.	8f/L	.	.	.	4B-/	.	4f\	.	4f/	.	4a-/	.
.	.	8B-/	.	8cc/	.	.	.	.	.	.	.	.	.	.	.
4r	.	8d/	.	8b-/	.	.	.	2B-/	.	2f\	.	2a-/	.	2b-/	.
.	.	8B-/	.	8a-/	.	.	.	.	.	.	.	.	.	.	.
4B-\	.	8d/	.	8f/	.	.	.	.	.	.	.	.	.	.	.
.	.	8B-/J	.	8d/J	.	.	.	.	.	.	.	.	.	.	.
!LO:LB:g=original	!	!	!	!	!	!	!	!	!	!	!	!	!	!	!
=82	=82	=82	=82	=82	=82	=82	=82	=82	=82	=82	=82	=82	=82	=82	=82
4E-\	.	8e-/L	.	8e-/L	.	.	.	4G/	.	4e-\	.	4g/	.	4b-/	.
.	.	8B-/	.	8f/	.	.	.	.	.	.	.	.	.	.	.
4r	.	8e-/	.	8g/	.	.	.	4r	.	4r	.	4r	.	4r	.
.	.	8B-/J	.	8a-/J	.	.	.	.	.	.	.	.	.	.	.
*	*	*Xtremolo	*	*	*	*	*	*	*	*	*	*	*	*	*
4B-\	.	8f/L	.	16an/LL	.	.	.	4B-/	.	4f\	.	(4f/	.	(4a-/	.
.	.	.	.	16b-/	.	.	.	.	.	.	.	.	.	.	.
.	.	8B-/J	.	16f/	.	.	.	.	.	.	.	.	.	.	.
.	.	.	.	16g/JJ	.	.	.	.	.	.	.	.	.	.	.
=83	=83	=83	=83	=83	=83	=83	=83	=83	=83	=83	=83	=83	=83	=83	=83
*	*	*tremolo	*	*	*	*	*	*	*	*	*	*	*	*	*
!	!	!	!	!	!	!LO:N:vis=00	!	!	!	!	!	!	!	!	!
4E-\	.	8e-/L	.	8e-/L	.	0.r	.	4G/	.	4e-\	.	4e-/)	.	4g/)	.
.	.	8B-/	.	8f/	.	.	.	.	.	.	.	.	.	.	.
4r	.	8e-/	.	8g/	.	.	.	4r	.	4r	.	4r	.	4r	.
.	.	8B-/J	.	8a-/J	.	.	.	.	.	.	.	.	.	.	.
*	*	*Xtremolo	*	*	*	*	*	*	*	*	*	*	*	*	*
4BB-/	.	8f/L	.	16b-/LL	.	.	.	(4B-/	.	4f\	.	(4f/	.	(4a-/	.
.	.	.	.	16cc/	.	.	.	.	.	.	.	.	.	.	.
.	.	8B-/J	.	16a-/	.	.	.	.	.	.	.	.	.	.	.
.	.	.	.	16f/JJ	.	.	.	.	.	.	.	.	.	.	.
=84	=84	=84	=84	=84	=84	=84	=84	=84	=84	=84	=84	=84	=84	=84	=84
*	*	*^	*	*	*	*	*	*	*	*	*	*	*	*	*
!	!	!	!LO:TX:t=P:problem=2.G na środku taktu	!	!	!	!	!	!	!	!	!LO:DY:B:i:t=for	!	!	!	!LO:DY:B:i:t=for
4E-\	.	4e-/	2.G/	f	4e-/	.	.	.	4G/)	.	4e-\	f	4e-/)	.	4g/)	f
!	!LO:DY:rj:B:i:t=fr.	!	!	!	!	!	!	!	!	!LO:DY:B:i:t=for	!	!	!	!	!	!
4E-\	f	4e-/	.	.	4gg 4b- 4e- 4G/	.	.	.	4e-\	f	4g\	.	4g/	.	4b-\	.
4E-\	.	4e-/	.	.	4e- 4G/	.	.	.	4g\	.	4b-\	.	4b-\	.	4ee-\	.
=85	=85	=85	=85	=85	=85	=85	=85	=85	=85	=85	=85	=85	=85	=85	=85	=85
*	*	*	*	*	*^	*	*	*	*	*	*	*	*	*	*	*
!	!	!	!LO:TX:t=P:problem=2.G na środku taktu	!LO:DY:rj	!	!LO:TX:t=P:problem=2.G na środku taktu	!LO:DY:rj	!	!	!	!	!	!	!	!	!	!
4E-\	pp	4e-/	2.G/	pp	4e-/	2.G/	pp	.	.	4e-\	pp	4g\	pp	4ee-\	pp	4gg\	pp
4E-\	.	4e-/	.	.	4e-/	.	.	.	.	4G/	.	4e-\	.	4g/	.	4ee-\	.
4E-\	.	4e-/	.	.	4e-/	.	.	.	.	4G/	.	4e-\	.	4e-/	.	4g/	.
*	*	*v	*v	*	*	*	*	*	*	*	*	*	*	*	*	*	*
*	*	*	*	*v	*v	*	*	*	*	*	*	*	*	*	*	*
!	!	!	!	!	!	!	!	!LO:LB:g=original	!	!	!	!LO:LB:g=original	!	!	!
=86	=86	=86	=86	=86	=86	=86	=86	=86	=86	=86	=86	=86	=86	=86	=86
2E-\	.	2e- 2G/	.	2e- 2G/	.	.	.	2G/	.	2e-\	.	2e-/	.	2g/	.
4r	.	4r	.	4r	.	.	.	4r	.	4r	.	4r	.	4r	.
==	==	==	==	==	==	==	==	==	==	==	==	==	==	==	==
*-	*-	*-	*-	*-	*-	*-	*-	*-	*-	*-	*-	*-	*-	*-	*-
!!!system-decoration: [g1][g2][g3][g4]g5
!!!RDF**kern: > = above
!!!RDF**kern: < = below
!!!RDF**kern: | = vertical stroke
!!!RDF**dynam: > = "diminundo", fontstyle="italic"
!!!RDF**dynam: pp = "pp.", fontstyle="bold-italic"
!!!ENC: Katarzyna Serwa
!!!END: 2021-12-03
!!!ENC: Berenika Jozajtis
!!!END: 2021-11-21
